!!!!SEGMENT: pl-cz--ii-136--pc0_kuci-mateusz--offertorium-in-f-ecce-panis-pc0.krn
!!!cenid: 17xx:226a
!!!COM: Kuci, Mateusz
!!!COM-rismid: pe30017582
!!!CDT:
!!!CNT:
!!!GTL: Offertorium in F (Ecce panis)
!!!OTL: [pre correcturam]
!!!PDT:
!!!AGN:
!!!SMS-siglum: PL-CZ
!!!SMS-shelfmark: II-136
!!!SMS-shelfwork: G
!!!NIFC-rismid:
!!!URL-scan: http://repozytorium.nifc.pl/skany/pl-cz-nut--ii-136
!!!ONB-nifc:
!!!key:
**kern	**fba	**dynam	**kern	**dynam	**kern	**dynam	**kern	**text	**dynam	**kern	**text	**kern	**text	**kern	**text	**kern	**kern
*part9	*	*part9	*part4	*part4	*part3	*part3	*part8	*part8	*part8	*part7	*part7	*part6	*part6	*part5	*part5	*part2	*part1
*	*	*	*group3	*	*group3	*	*group2	*	*	*group2	*	*group2	*	*group2	*	*group1	*group1
*staff9	*	*	*staff4	*	*staff3	*	*staff8	*staff8	*	*staff7	*staff7	*staff6	*staff6	*staff5	*staff5	*staff2	*staff1
*Iorgan	*	*	*Ivioln	*	*Ivioln	*	*Ibass	*	*	*Itenor	*	*Ialto	*	*Ivox	*	*Ioboe	*Ioboe
*I"Organo	*	*	*I"Violino Secondo	*	*I"Violino Primo	*	*I"Basso	*	*	*I"Tenore	*	*I"Alto	*	*I"Canto.	*	*I"Oboe secondo	*I"Oboe primo
*I'Org	*	*	*I'Vn II	*	*I'Vn I	*	*I'B	*	*	*I'T	*	*I'A	*	*I'C	*	*I'Ob II	*I'Ob I
*clefF4	*	*	*clefG2	*	*clefG2	*	*clefF4	*	*	*clefC4	*	*clefC3	*	*clefC1	*	*clefG2	*clefG2
*k[b-]	*	*	*k[b-]	*	*k[b-]	*	*k[b-]	*	*	*k[b-]	*	*k[b-]	*	*k[b-]	*	*k[b-]	*k[b-]
*F:	*	*	*F:	*	*F:	*	*F:	*	*	*F:	*	*F:	*	*F:	*	*F:	*F:
*M4/4	*	*	*M4/4	*	*M4/4	*	*M4/4	*	*	*M4/4	*	*M4/4	*	*M4/4	*	*M4/4	*M4/4
*met(c)	*	*	*met(c)	*	*met(c)	*	*met(c)	*	*	*met(c)	*	*met(c)	*	*met(c)	*	*met(c)	*met(c)
=1	=1	=1	=1	=1	=1	=1	=1	=1	=1	=1	=1	=1	=1	=1	=1	=1	=1
*4\right	*	*	*	*	*2\right	*	*	*	*	*	*	*	*	*	*	*	*
!	!	!	!	!	!	!	!LO:TX:a:t=10	!	!	!LO:TX:a:t=10	!	!LO:TX:a:t=10	!	!LO:TX:a:t=10	!	!	!LO:TX:a:t=1
!LO:TX:a:t=Allegro Mode	!	!	!LO:TX:a:t=Allegro Moder	!	!LO:TX:a:t=Allegro Moder	!	!LO:TX:a:t=Allegro Moder	!	!	!LO:TX:a:t=Allegro Modera	!	!LO:TX:a:t=Allegro Mode	!	!LO:TX:a:t=Allegro	!	!	!
4F\	.	.	2a/	.	2cc\	.	00r	.	.	00r	.	00r	.	00r	.	1r	1r
4F\	.	.	.	.	.	.	.	.	.	.	.	.	.	.	.	.	.
*	*	*	*	*	*8\right	*	*	*	*	*	*	*	*	*	*	*	*
4F\	.	.	8a/L	.	8cc\L	.	.	.	.	.	.	.	.	.	.	.	.
*	*	*	*	*	*16\right	*	*	*	*	*	*	*	*	*	*	*	*
!	!	!	!	!	!	!LO:DY:b	!	!	!	!	!	!	!	!	!	!	!
.	.	.	16b-/L	.	16dd\L	p	.	.	.	.	.	.	.	.	.	.	.
.	.	.	16a/JJ	.	16cc\JJ	.	.	.	.	.	.	.	.	.	.	.	.
4F\	.	.	8g/L	.	8b-\L	.	.	.	.	.	.	.	.	.	.	.	.
.	.	.	8a/J	.	8cc\J	.	.	.	.	.	.	.	.	.	.	.	.
=2	=2	=2	=2	=2	=2	=2	=2	=2	=2	=2	=2	=2	=2	=2	=2	=2	=2
*	*	*	*4\right	*	*4\right	*	*	*	*	*	*	*	*	*	*	*	*
4F\	.	.	4b-\	.	4dd\	.	.	.	.	.	.	.	.	.	.	8r	8r
*	*	*	*	*	*	*	*	*	*	*	*	*	*	*	*	*8\right	*8\right
.	.	.	.	.	.	.	.	.	.	.	.	.	.	.	.	8b-\L	8dd\L
!	!	!	!	!	!	!	!	!	!	!	!	!	!	!	!	!	!LO:TX:a:t=P:problem:kasownik poprawiony ołówkiem na bemol
!	!	!	!	!	!	!	!	!	!	!	!	!	!	!	!	!	!LO:SIC:s=8ee-:v
4r	.	.	4r	.	4r	.	.	.	.	.	.	.	.	.	.	8cc\	8een'\
.	.	.	.	.	.	.	.	.	.	.	.	.	.	.	.	8dd\J	8ff'\J
!	!	!	!	!	!	!	!	!	!	!	!	!	!	!	!	!LO:TX:a:t=P:problem:kasownik poprawiony ołówkiem na bemol	!
!	!	!	!	!	!	!	!	!	!	!	!	!	!	!	!	!LO:SIC:s=8ee-:v	!
2r	.	.	2r	.	2r	.	.	.	.	.	.	.	.	.	.	8een\L	8gg'\L
.	.	.	.	.	.	.	.	.	.	.	.	.	.	.	.	8ff\	8aa'\
.	.	.	.	.	.	.	.	.	.	.	.	.	.	.	.	8gg\	8bb-'\
.	.	.	.	.	.	.	.	.	.	.	.	.	.	.	.	8aa\J	8ccc'\J
=3	=3	=3	=3	=3	=3	=3	=3	=3	=3	=3	=3	=3	=3	=3	=3	=3	=3
*	*	*	*2\right	*	*	*	*	*	*	*	*	*	*	*	*	*4\right	*4\right
4F\	6_ 4	.	2b-\	.	2dd\	.	.	.	.	.	.	.	.	.	.	4bb-\	4ddd\
4F\	_	.	.	.	.	.	.	.	.	.	.	.	.	.	.	4r	4r
*	*	*	*8\right	*	*	*	*	*	*	*	*	*	*	*	*	*	*
4F\	_	.	8b-\L	.	8dd\L	.	.	.	.	.	.	.	.	.	.	2r	2r
*	*	*	*16\right	*	*	*	*	*	*	*	*	*	*	*	*	*	*
.	.	.	16dd\L	.	16dd\L	.	.	.	.	.	.	.	.	.	.	.	.
.	.	.	16cc\JJ	.	16ee\JJ	.	.	.	.	.	.	.	.	.	.	.	.
.	.	.	8qqee/	.	8qqgg/	.	.	.	.	.	.	.	.	.	.	.	.
4F\	_	.	8dd\L	.	8ff\L	.	.	.	.	.	.	.	.	.	.	.	.
.	.	.	16cc\L	.	16ee\L	.	.	.	.	.	.	.	.	.	.	.	.
.	X	.	16b-\JJ	.	16dd\JJ	.	.	.	.	.	.	.	.	.	.	.	.
=4	=4	=4	=4	=4	=4	=4	=4	=4	=4	=4	=4	=4	=4	=4	=4	=4	=4
!	!	!	!	!	!LO:TX:b:t=P:problem:trudno stwierdzić, czy to na pewno przednutka	!	!	!	!	!	!	!	!	!	!	!	!
.	.	.	.	.	8qqf\	.	.	.	.	.	.	.	.	.	.	.	.
4F\	.	.	4a/	.	4cc\	.	.	.	.	.	.	.	.	.	.	8r	8r
.	.	.	.	.	.	.	.	.	.	.	.	.	.	.	.	8a\L	8cc\L
4r	.	.	4r	.	4r	.	.	.	.	.	.	.	.	.	.	8b-\	8dd\
.	.	.	.	.	.	.	.	.	.	.	.	.	.	.	.	8cc\J	8ee\J
2r	.	.	2r	.	2r	.	.	.	.	.	.	.	.	.	.	8dd\L	8ff\L
.	.	.	.	.	.	.	.	.	.	.	.	.	.	.	.	8ee\	8gg\
.	.	.	.	.	.	.	.	.	.	.	.	.	.	.	.	8ff\	8aa\
.	.	.	.	.	.	.	.	.	.	.	.	.	.	.	.	8gg\J	8bb-\J
=5	=5	=5	=5	=5	=5	=5	=5	=5	=5	=5	=5	=5	=5	=5	=5	=5	=5
4r	.	.	4r	.	4r	.	00r	.	.	00r	.	00r	.	00r	.	4aa\	4ccc\
4AA/	6 3	.	16ff\LL	.	16ccc\LL	.	.	.	.	.	.	.	.	.	.	4r	4r
!	!	!	!	!	!	!LO:DY:b	!	!	!	!	!	!	!	!	!	!	!
.	.	.	16ff\	.	16bb-\	f	.	.	.	.	.	.	.	.	.	.	.
.	.	.	16ff\	.	16aa\	.	.	.	.	.	.	.	.	.	.	.	.
.	.	.	16ff\JJ	.	16bb-\JJ	.	.	.	.	.	.	.	.	.	.	.	.
!	!	!	!	!	!LO:LB:g=original	!	!	!	!	!	!	!	!	!	!	!	!
*	*	*	*tremolo	*	*	*	*	*	*	*	*	*	*	*	*	*	*
4AA/	.	.	16ff\LL	.	16ccc\LL	.	.	.	.	.	.	.	.	.	.	2r	2r
.	.	.	16ff\	.	16bb-\	.	.	.	.	.	.	.	.	.	.	.	.
.	.	.	16ff\	.	16aa\	.	.	.	.	.	.	.	.	.	.	.	.
.	.	.	16ff\JJ	.	16gg\JJ	.	.	.	.	.	.	.	.	.	.	.	.
!	!	!	!LO:LB:g=original	!	!	!	!	!	!	!	!	!	!	!	!	!	!
4AA/	.	.	16ff\LL	.	16ff\LL	.	.	.	.	.	.	.	.	.	.	.	.
.	.	.	16ff\	.	16ee-X\	.	.	.	.	.	.	.	.	.	.	.	.
.	.	.	16ff\	.	16dd\	.	.	.	.	.	.	.	.	.	.	.	.
.	.	.	16ff\JJ	.	16ee-\JJ	.	.	.	.	.	.	.	.	.	.	.	.
=6	=6	=6	=6	=6	=6	=6	=6	=6	=6	=6	=6	=6	=6	=6	=6	=6	=6
!	!	!	!	!	!	!	!	!	!	!	!	!	!	!	!	!LO:TX:a:t=1	!LO:TX:a:t=1
*tremolo	*	*	*	*	*	*	*	*	*	*	*	*	*	*	*	*	*
8BB-/L	.	.	16ff\LL	.	8dd\L	.	.	.	.	.	.	.	.	.	.	1r	1r
.	.	.	16ff\	.	.	.	.	.	.	.	.	.	.	.	.	.	.
8BB-/	.	.	16ff\	.	16ee-X\L	.	.	.	.	.	.	.	.	.	.	.	.
.	.	.	16ff\	.	16ff\JJ	.	.	.	.	.	.	.	.	.	.	.	.
8BB-/	.	.	16ff\	.	16gg\LL	.	.	.	.	.	.	.	.	.	.	.	.
.	.	.	16ff\	.	16aa\	.	.	.	.	.	.	.	.	.	.	.	.
8BB-/J	.	.	16ff\	.	16bb-\	.	.	.	.	.	.	.	.	.	.	.	.
.	.	.	16ff\JJ	.	16ccc\JJ	.	.	.	.	.	.	.	.	.	.	.	.
8BB-/L	.	.	16ff\LL	.	16ddd\LL	.	.	.	.	.	.	.	.	.	.	.	.
.	.	.	16ff\	.	16ccc\	.	.	.	.	.	.	.	.	.	.	.	.
8BB-/	.	.	16ff\	.	16bb-\	.	.	.	.	.	.	.	.	.	.	.	.
.	.	.	16ff\	.	16aa\JJ	.	.	.	.	.	.	.	.	.	.	.	.
8BB-/	.	.	16ff\	.	16gg\LL	.	.	.	.	.	.	.	.	.	.	.	.
.	.	.	16ff\	.	16ff\	.	.	.	.	.	.	.	.	.	.	.	.
8BB-/J	.	.	16ff\	.	16ee-\	.	.	.	.	.	.	.	.	.	.	.	.
.	.	.	16ff\JJ	.	16dd\JJ	.	.	.	.	.	.	.	.	.	.	.	.
=7	=7	=7	=7	=7	=7	=7	=7	=7	=7	=7	=7	=7	=7	=7	=7	=7	=7
!LO:LB:g=original	!	!	!	!	!	!	!	!	!	!	!	!	!	!	!	!LO:LB:g=original	!
*	*	*	*	*	*	*	*	*	*	*	*	*	*	*	*	*2\right	*2\right
8C/L	.	.	16ffLL 16a\	.	2cc\	.	.	.	.	.	.	.	.	.	.	2ff\	2aa\
.	.	.	16ff 16a\	.	.	.	.	.	.	.	.	.	.	.	.	.	.
8C/	.	.	16ff 16a\	.	.	.	.	.	.	.	.	.	.	.	.	.	.
.	.	.	16ff 16a\	.	.	.	.	.	.	.	.	.	.	.	.	.	.
8C/	.	.	16ff 16a\	.	.	.	.	.	.	.	.	.	.	.	.	.	.
.	.	.	16ff 16a\	.	.	.	.	.	.	.	.	.	.	.	.	.	.
8C/J	.	.	16ff 16a\	.	.	.	.	.	.	.	.	.	.	.	.	.	.
.	.	.	16ffJJ 16a\	.	.	.	.	.	.	.	.	.	.	.	.	.	.
8C/L	.	.	16ffLL 16cc\	.	2gg\	.	.	.	.	.	.	.	.	.	.	2ee\	2gg\
.	.	.	16ff 16cc\	.	.	.	.	.	.	.	.	.	.	.	.	.	.
8C/	.	.	16ff 16cc\	.	.	.	.	.	.	.	.	.	.	.	.	.	.
.	.	.	16ff 16cc\	.	.	.	.	.	.	.	.	.	.	.	.	.	.
8C/	.	.	16ff 16cc\	.	.	.	.	.	.	.	.	.	.	.	.	.	.
.	.	.	16ff 16cc\	.	.	.	.	.	.	.	.	.	.	.	.	.	.
8C/J	.	.	16ff 16cc\	.	.	.	.	.	.	.	.	.	.	.	.	.	.
.	.	.	16ffJJ 16cc\	.	.	.	.	.	.	.	.	.	.	.	.	.	.
*	*	*	*Xtremolo	*	*	*	*	*	*	*	*	*	*	*	*	*	*
=8	=8	=8	=8	=8	=8	=8	=8	=8	=8	=8	=8	=8	=8	=8	=8	=8	=8
!	!	!	!	!	!	!	!	!	!	!	!	!	!	!	!	!	!LO:LB:g=original
4F\	.	.	4ff\	.	4ff\	.	.	.	.	.	.	.	.	.	.	4ff\	4ff\
*	*	*	*	*	*	*	*	*	*	*	*	*	*	*	*	*16\right	*16\right
!	!	!	!	!LO:DY:b	!	!LO:DY:b	!	!	!	!	!	!	!	!	!	!	!
4r	.	.	16a/LL	p	16cc\LL	p	.	.	.	.	.	.	.	.	.	16aa\LL	16ccc\LL
.	.	.	16g/	.	16b-\	.	.	.	.	.	.	.	.	.	.	16gg\	16bb-\
!	!	!	!	!	!	!	!	!	!	!	!	!	!	!	!	!	!LO:TX:a:t=P:problem:wymazana nuta
.	.	.	16f/	.	16a\	.	.	.	.	.	.	.	.	.	.	16ff\	16aa\
.	.	.	16g/JJ	.	16b-\JJ	.	.	.	.	.	.	.	.	.	.	16gg\JJ	16bb-\JJ
!	!	!	!LO:TX:b:t=P:problem:mixed beam	!	!LO:LB:g=original	!	!	!	!	!	!	!	!	!	!	!	!
8r	.	.	8a/L	.	8cc\L	.	.	.	.	.	.	.	.	.	.	4aa\	4ccc\
*8\right	*	*	*	*	*	*	*	*	*	*	*	*	*	*	*	*	*
!LO:TX:b:t=P:problem:mixed beam	!	!	!	!	!	!LO:DY:b	!	!	!	!	!	!	!	!	!	!	!
8F\L	.	.	8ff\J	.	8aa\	f	.	.	.	.	.	.	.	.	.	.	.
!	!	!	!	!LO:DY:b	!	!	!	!	!	!	!	!	!	!	!	!	!
8c\	.	.	8ee\L	f	8gg\	.	.	.	.	.	.	.	.	.	.	4r	4r
8C/J	.	.	8gg\J	.	8bb-\J	.	.	.	.	.	.	.	.	.	.	.	.
=9	=9	=9	=9	=9	=9	=9	=9	=9	=9	=9	=9	=9	=9	=9	=9	=9	=9
4F\	.	.	4ff 4cc\	.	4aa\	.	0r	.	.	0r	.	0r	.	0r	.	4r	4r
!	!	!	!	!LO:DY:b	!	!	!	!	!	!	!	!	!	!	!	!	!
4r	.	.	16a/LL	p	16cc\LL	.	.	.	.	.	.	.	.	.	.	16aa\LL	16ccc\LL
.	.	.	16g/	.	16b-\	.	.	.	.	.	.	.	.	.	.	16gg\	16bb-\
!	!	!	!	!	!	!	!	!	!	!	!	!	!	!	!	!	!LO:TX:a:t=P:problem:wymazana nuta
.	.	.	16f/	.	16a\	.	.	.	.	.	.	.	.	.	.	16ff\	16aa\
.	.	.	16g/JJ	.	16b-\JJ	.	.	.	.	.	.	.	.	.	.	16gg\JJ	16bb-\JJ
8r	.	.	8a/L	.	8cc\L	.	.	.	.	.	.	.	.	.	.	4aa\	4ccc\
8F\L	.	.	8a/	.	8ff\	.	.	.	.	.	.	.	.	.	.	.	.
8B-\	.	.	8b-/	.	8gg\	.	.	.	.	.	.	.	.	.	.	4r	4r
!	!	!	!LO:TX:b:t=g	!	!	!LO:DY:b	!	!	!	!	!	!	!	!	!	!	!
!	!	!	!LO:SIC:s=8g:v	!	!	!	!	!	!	!	!	!	!	!	!	!	!
8c\J	.	.	8a/J	.	8ee\J	f	.	.	.	.	.	.	.	.	.	.	.
=10	=10	=10	=10	=10	=10	=10	=10	=10	=10	=10	=10	=10	=10	=10	=10	=10	=10
8F\L	.	.	4a 4f 4c/	.	4ff 4a\	.	.	.	.	.	.	.	.	.	.	4a/	4ff\
8F\	.	.	.	.	.	.	.	.	.	.	.	.	.	.	.	.	.
8C\	.	.	4a 4f 4c/	.	4ff 4a\	.	.	.	.	.	.	.	.	.	.	4a/	4ff\
8AA\J	.	.	.	.	.	.	.	.	.	.	.	.	.	.	.	.	.
4FF/	.	.	4a 4f 4c/	.	4ff 4a\	.	.	.	.	.	.	.	.	.	.	4a/	4ff\
!	!	!	!	!	!LO:TX:a:t=P:problem:podwójna kreska taktowa	!	!	!	!	!	!	!	!	!	!	!	!
4r	.	.	4r	.	4r	.	.	.	.	.	.	.	.	.	.	4r	4r
=11	=11	=11	=11	=11	=11	=11	=11	=11	=11	=11	=11	=11	=11	=11	=11	=11	=11
!	!	!	!LO:LB:g=original	!	!	!	!	!	!	!	!	!	!	!	!	!	!
!	!	!	!	!	!	!	!	!	!	!	!	!	!	!	!	!LO:TX:a:t=1	!LO:TX:a:t=1
*	*	*	*	*	*	*	*2\right	*	*	*2\right	*	*2\right	*	*2\right	*	*	*
4FF/	.	.	2a/	.	2cc\	.	2.F\	Ec-	f	2.f\	Ec-	2.a\	Ec-	2.cc\	Ec-	1r	1r
4FF/	.	.	.	.	.	.	.	.	.	.	.	.	.	.	.	.	.
4FF/	.	.	8a/L	.	8cc\L	.	.	.	.	.	.	.	.	.	.	.	.
.	.	.	16b-/L	.	16dd\L	.	.	.	.	.	.	.	.	.	.	.	.
.	.	.	16a/JJ	.	16cc\JJ	.	.	.	.	.	.	.	.	.	.	.	.
*	*	*	*	*	*	*	*4\right	*	*	*4\right	*	*4\right	*	*4\right	*	*	*
4FF/	.	.	8g/L	.	8b-\L	.	4F\	-ce	.	4f\	-ce	4a\	-ce	4cc\	-ce	.	.
.	.	.	8a/J	.	8cc\J	.	.	.	.	.	.	.	.	.	.	.	.
=12	=12	=12	=12	=12	=12	=12	=12	=12	=12	=12	=12	=12	=12	=12	=12	=12	=12
!	!	!	!LO:TX:b:t=P:problem:mixed beam	!	!LO:TX:b:t=P:problem:mixed beam	!	!	!	!	!	!	!	!	!	!	!	!
4FF/	.	.	8b-\L	.	8dd\L	.	4F\	pa-	.	4f\	pa-	4b-\	pa-	4dd\	pa-	8r	8r
.	.	.	8B-/	.	8d/	.	.	.	.	.	.	.	.	.	.	8b-\L	8dd\L
!	!	!	!	!	!LO:SIC:s=8e-:v	!	!	!	!	!	!	!	!	!	!	!	!
4r	.	.	8c/	.	8e/	.	4F\	-nis	.	4f\	-nis	4b-\	-nis	4dd\	-nis	8cc\	8ee-X\
.	.	.	8d/J	.	8f/J	.	.	.	.	.	.	.	.	.	.	8dd\J	8ff\J
!	!	!	!LO:SIC:s=8e-:v	!LO:DY:b	!	!	!	!	!	!	!	!	!	!	!	!LO:SIC:s=8ee-:v	!
2r	.	.	8e/L	p	8g/L	.	2r	.	.	2r	.	2r	.	2r	.	8ee\L	8gg\L
.	.	.	8f/	.	8a/	.	.	.	.	.	.	.	.	.	.	8ff\	8aa\
.	.	.	8g/	.	8b-/	.	.	.	.	.	.	.	.	.	.	8gg\	8bb-\
.	.	.	8a/J	.	8cc/J	.	.	.	.	.	.	.	.	.	.	8aa\J	8ccc\J
=13	=13	=13	=13	=13	=13	=13	=13	=13	=13	=13	=13	=13	=13	=13	=13	=13	=13
!LO:LB:g=original	!	!	!	!	!LO:LB:g=original	!	!	!	!	!	!	!	!	!	!	!LO:LB:g=original	!
4FF/	.	.	2b-\	.	2dd\	.	2.F\	An-	.	2.f\	An-	2.b-\	An-	2.dd\	An-	4bb-\	4ddd\
4FF/	6 4	.	.	.	.	.	.	.	.	.	.	.	.	.	.	4r	4r
4FF/	.	.	8b-\L	.	8dd\L	.	.	.	.	.	.	.	.	.	.	2r	2r
.	.	.	16dd\L	.	16ff\L	.	.	.	.	.	.	.	.	.	.	.	.
.	.	.	16cc\JJ	.	16ee\JJ	.	.	.	.	.	.	.	.	.	.	.	.
.	.	.	8qqee/	.	8qqgg/	.	.	.	.	.	.	.	.	.	.	.	.
4FF/	_	.	8dd\L	.	8ff\L	.	4F\	-ge-	.	4f\	-ge-	4b-\	-ge-	4dd\	-ge-	.	.
.	.	.	16cc\L	.	16ee\L	.	.	.	.	.	.	.	.	.	.	.	.
.	.	.	16b-\JJ	.	16dd\JJ	.	.	.	.	.	.	.	.	.	.	.	.
=14	=14	=14	=14	=14	=14	=14	=14	=14	=14	=14	=14	=14	=14	=14	=14	=14	=14
!	!	!	!	!	!	!	!	!	!	!	!	!	!	!	!	!	!LO:LB:g=original
!	!	!	!	!	!LO:TX:b:t=P:problem:mixed beam	!	!	!	!	!	!	!	!	!	!	!	!
4FF/	_	.	8a/L	.	8cc\L	.	4F\	-lo-	.	4f\	-lo-	4a\	-lo-	4cc\	-lo-	8r	8r
.	.X	.	8A/	.	8c/	.	.	.	.	.	.	.	.	.	.	8a\L	8cc\L
4r	.	.	8B-/	.	8d/	.	4F\	-rum	.	4f\	-rum	4a\	-rum	4cc\	-rum	8b-\	8dd\
.	.	.	8c/J	.	8e/J	.	.	.	.	.	.	.	.	.	.	8cc\J	8een\J
2r	.	.	8d/L	.	8f/L	.	2r	.	.	2r	.	2r	.	2r	.	8dd\L	8ff\L
.	.	.	8e/	.	8g/	.	.	.	.	.	.	.	.	.	.	8ee\	8gg\
.	.	.	8f/	.	8a/	.	.	.	.	.	.	.	.	.	.	8ff\	8aa\
!	!	!	!	!LO:DY:b:t=f&colon;	!	!	!	!	!	!	!	!	!	!	!	!	!
.	.	.	8g/J	f	8b-/J	.	.	.	.	.	.	.	.	.	.	8gg\J	8bb-\J
=15	=15	=15	=15	=15	=15	=15	=15	=15	=15	=15	=15	=15	=15	=15	=15	=15	=15
!	!	!	!	!	!	!	!LO:LB:g=original	!	!	!	!	!	!	!	!	!	!
!	!	!	!	!	!	!LO:DY:b	!	!	!	!	!	!	!	!	!	!	!
*2\right	*	*	*	*	*	*	*	*	*	*	*	*	*	*	*	*	*
8F\L	.	.	4a/	.	4cc\	f	2.F\	fa-	.	2.c\	fac-	2.a\	fac-	2.ff\	fac-	4aa\	4ccc\
8F\	.	.	.	.	.	.	.	.	.	.	.	.	.	.	.	.	.
8F\	.	.	16aa\LL	.	16ccc\LL	.	.	.	.	.	.	.	.	.	.	4r	4r
.	.	.	16gg\	.	16bb-\	.	.	.	.	.	.	.	.	.	.	.	.
8F\J	.	.	16ff\	.	16aa\	.	.	.	.	.	.	.	.	.	.	.	.
.	.	.	16gg\JJ	.	16bb-\JJ	.	.	.	.	.	.	.	.	.	.	.	.
8F\L	.	.	16aa\LL	.	16ccc\LL	.	.	.	.	.	.	.	.	.	.	2r	2r
.	.	.	16aa\	.	16ccc\	.	.	.	.	.	.	.	.	.	.	.	.
8F\	.	.	16ff\	.	16aa\	.	.	.	.	.	.	.	.	.	.	.	.
.	.	.	16ff\JJ	.	16aa\JJ	.	.	.	.	.	.	.	.	.	.	.	.
*	*	*	*tremolo	*	*	*	*	*	*	*	*	*	*	*	*	*	*
8F\	.	.	16a/LL	.	16ff\LL	.	4F\	-ctus	.	4c\	-tus	4a\	-tus	4ff\	-tus	.	.
.	.	.	16a/	.	16ff\	.	.	.	.	.	.	.	.	.	.	.	.
8F\J	.	.	16a/	.	16cc\	.	.	.	.	.	.	.	.	.	.	.	.
.	.	.	16a/JJ	.	16cc\JJ	.	.	.	.	.	.	.	.	.	.	.	.
*	*	*	*Xtremolo	*	*	*	*	*	*	*	*	*	*	*	*	*	*
=16	=16	=16	=16	=16	=16	=16	=16	=16	=16	=16	=16	=16	=16	=16	=16	=16	=16
!	!	!	!	!	!	!	!	!	!	!LO:LB:g=original	!	!	!	!	!	!	!
2C/	.	.	16g/LL	.	16een\LL	.	2C/	ci-	.	2c\	ci-	2g\	ci-	2ee\	ci-	2b-X\	2gg\
.	.	.	16a/	.	16ff\	.	.	.	.	.	.	.	.	.	.	.	.
.	.	.	16b-X/	.	16gg\	.	.	.	.	.	.	.	.	.	.	.	.
.	.	.	16a/JJ	.	16ff\JJ	.	.	.	.	.	.	.	.	.	.	.	.
.	.	.	16g/LL	.	16ee\LL	.	.	.	.	.	.	.	.	.	.	.	.
.	.	.	16a/	.	16ff\	.	.	.	.	.	.	.	.	.	.	.	.
.	.	.	16b-/	.	16gg\	.	.	.	.	.	.	.	.	.	.	.	.
.	.	.	16g/JJ	.	16ff\JJ	.	.	.	.	.	.	.	.	.	.	.	.
!	!	!	!	!	!LO:LB:g=original	!	!	!	!	!	!	!	!	!	!	!	!
4F\	.	.	16a/LL	.	16ff\LL	.	4F\	-bus	.	4c\	-bus	4a\	-bus	4ff\	-bus	4a\	4ff\
.	.	.	16a/	.	16cc\	.	.	.	.	.	.	.	.	.	.	.	.
.	.	.	16b-/	.	16dd\	.	.	.	.	.	.	.	.	.	.	.	.
.	.	.	16cc/JJ	.	16ee\JJ	.	.	.	.	.	.	.	.	.	.	.	.
4r	.	.	16dd\LL	.	16ff\LL	.	4r	.	.	4r	.	4r	.	4r	.	4r	4r
.	.	.	16ee\	.	16gg\	.	.	.	.	.	.	.	.	.	.	.	.
.	.	.	16ff\	.	16aa\	.	.	.	.	.	.	.	.	.	.	.	.
.	.	.	16gg\JJ	.	16bb-\JJ	.	.	.	.	.	.	.	.	.	.	.	.
=17	=17	=17	=17	=17	=17	=17	=17	=17	=17	=17	=17	=17	=17	=17	=17	=17	=17
!	!	!	!	!	!	!	!	!	!	!	!	!LO:LB:g=original	!	!LO:LB:g=original	!	!	!
8F\L	.	.	16aa\LL	.	16ccc\LL	.	2.F\	vi-	.	2.c\	vi-	2.a\	vi-	2.ff\	vi-	1a	1ff
.	.	.	16gg\	.	16bb-\	.	.	.	.	.	.	.	.	.	.	.	.
8F\	.	.	16ff\	.	16aa\	.	.	.	.	.	.	.	.	.	.	.	.
.	.	.	16gg\JJ	.	16bb-\JJ	.	.	.	.	.	.	.	.	.	.	.	.
8F\	.	.	16aa\LL	.	16ccc\LL	.	.	.	.	.	.	.	.	.	.	.	.
.	.	.	16gg\	.	16bb-\	.	.	.	.	.	.	.	.	.	.	.	.
8F\J	.	.	16ff\	.	16aa\	.	.	.	.	.	.	.	.	.	.	.	.
.	.	.	16gg\JJ	.	16bb-\JJ	.	.	.	.	.	.	.	.	.	.	.	.
8F\L	.	.	8aa\L	.	8ccc\L	.	.	.	.	.	.	.	.	.	.	.	.
8F\	.	.	8ff 8cc\J	.	8aa\	.	.	.	.	.	.	.	.	.	.	.	.
!	!	!	!LO:LB:g=original	!	!	!	!	!	!	!	!	!	!	!	!	!	!
8F\	.	.	8cc\L	.	8aa\	.	4F\	-a-	.	4c\	-a-	4a\	-a-	4ff\	-a-	.	.
8F\J	.	.	8a\J	.	8ff\J	.	.	.	.	.	.	.	.	.	.	.	.
*Xtremolo	*	*	*	*	*	*	*	*	*	*	*	*	*	*	*	*	*
=18	=18	=18	=18	=18	=18	=18	=18	=18	=18	=18	=18	=18	=18	=18	=18	=18	=18
!LO:TX:b:t=P:problem:mixed beam	!	!	!	!	!	!	!	!	!	!	!	!	!	!	!	!	!
8c\L	.	.	16b-X\LL	.	16een\LL	.	2C/	-to-	.	2c\	-to-	2g\	-to-	2ee\	-to-	2b-\	2gg\
.	.	.	16a\	.	16ff\	.	.	.	.	.	.	.	.	.	.	.	.
8c\	.	.	16g\	.	16gg\	.	.	.	.	.	.	.	.	.	.	.	.
.	.	.	16a\JJ	.	16ff\JJ	.	.	.	.	.	.	.	.	.	.	.	.
8C/	.	.	16g\LL	.	16ee\LL	.	.	.	.	.	.	.	.	.	.	.	.
.	.	.	16a\	.	16ff\	.	.	.	.	.	.	.	.	.	.	.	.
8C/J	.	.	16b-\	.	16gg\	.	.	.	.	.	.	.	.	.	.	.	.
.	.	.	16b-\JJ	.	16ee\JJ	.	.	.	.	.	.	.	.	.	.	.	.
!	!	!	!LO:TX:b:t=P:problem:mixed beam	!	!	!	!	!	!	!	!	!	!	!	!	!	!
8F\L	.	.	16a/LL	.	16ff\LL	.	4F\	-rum	.	4c\	-rum	4a\	-rum	4ff\	-rum	4a\	4ff\
.	.	.	16a/	.	16ff\	.	.	.	.	.	.	.	.	.	.	.	.
8F\	.	.	16ff\	.	16aa\	.	.	.	.	.	.	.	.	.	.	.	.
.	.	.	16ff\JJ	.	16aa\JJ	.	.	.	.	.	.	.	.	.	.	.	.
*	*	*	*tremolo	*	*	*	*	*	*	*	*	*	*	*	*	*	*
8A\	.	.	16ff\LL	.	16ccc\LL	.	4r	.	.	4r	.	4r	.	4r	.	4r	4r
.	.	.	16ff\	.	16ccc\	.	.	.	.	.	.	.	.	.	.	.	.
8A\J	.	.	16ff\	.	16ccc\	.	.	.	.	.	.	.	.	.	.	.	.
.	.	.	16ff\JJ	.	16ccc\JJ	.	.	.	.	.	.	.	.	.	.	.	.
=19	=19	=19	=19	=19	=19	=19	=19	=19	=19	=19	=19	=19	=19	=19	=19	=19	=19
!LO:LB:g=original	!	!	!	!	!LO:LB:g=original	!	!	!	!	!	!	!	!	!	!	!	!
*tremolo	*	*	*	*	*	*	*	*	*	*	*	*	*	*	*	*	*
8B-\L	.	.	16ff\LL	.	16ddd\LL	.	2B-\	ve-	.	2f\	ve-	2f\	ve-	2dd\	ve-	1dd	1ff
.	.	.	16ff\	.	16ddd\	.	.	.	.	.	.	.	.	.	.	.	.
8B-\	.	.	16ff\	.	16dd\	.	.	.	.	.	.	.	.	.	.	.	.
.	.	.	16ff\	.	16dd\JJ	.	.	.	.	.	.	.	.	.	.	.	.
8B-\	.	.	16ff\	.	16ff\LL	.	.	.	.	.	.	.	.	.	.	.	.
.	.	.	16ff\	.	16ff\	.	.	.	.	.	.	.	.	.	.	.	.
8B-\J	.	.	16ff\	.	16bb-\	.	.	.	.	.	.	.	.	.	.	.	.
.	.	.	16ff\JJ	.	16bb-\JJ	.	.	.	.	.	.	.	.	.	.	.	.
8B-\L	.	.	16ff\LL	.	16ddd\LL	.	2B-\	-re	.	2f\	-re	2f\	-re	2dd\	-re	.	.
.	.	.	16ff\	.	16ddd\	.	.	.	.	.	.	.	.	.	.	.	.
8B-\	.	.	16ff\	.	16bb-\	.	.	.	.	.	.	.	.	.	.	.	.
.	.	.	16ff\	.	16bb-\JJ	.	.	.	.	.	.	.	.	.	.	.	.
8B-\	.	.	16ff\	.	16ff\LL	.	.	.	.	.	.	.	.	.	.	.	.
.	.	.	16ff\	.	16ff\	.	.	.	.	.	.	.	.	.	.	.	.
8B-\J	.	.	16ff\	.	16dd\	.	.	.	.	.	.	.	.	.	.	.	.
.	.	.	16ff\JJ	.	16dd\JJ	.	.	.	.	.	.	.	.	.	.	.	.
=20	=20	=20	=20	=20	=20	=20	=20	=20	=20	=20	=20	=20	=20	=20	=20	=20	=20
!	!	!	!	!	!	!	!LO:LB:g=original	!	!	!	!	!	!	!	!	!	!
*	*	*	*	*	*tremolo	*	*	*	*	*	*	*	*	*	*	*	*
8A\L	.	.	16ff\LL	.	16cc\LL	.	2A\	pa-	.	2f\	pa-	2f\	pa-	2cc\	pa-	1cc	1ff
.	.	.	16ff\	.	16cc\	.	.	.	.	.	.	.	.	.	.	.	.
8A\	.	.	16ff\	.	16cc\	.	.	.	.	.	.	.	.	.	.	.	.
.	.	.	16ff\	.	16cc\JJ	.	.	.	.	.	.	.	.	.	.	.	.
*	*	*	*	*	*Xtremolo	*	*	*	*	*	*	*	*	*	*	*	*
8A\	.	.	16ff\	.	16ff\LL	.	.	.	.	.	.	.	.	.	.	.	.
.	.	.	16ff\	.	16ff\	.	.	.	.	.	.	.	.	.	.	.	.
8A\J	.	.	16ff\	.	16aa\	.	.	.	.	.	.	.	.	.	.	.	.
.	.	.	16ff\JJ	.	16aa\JJ	.	.	.	.	.	.	.	.	.	.	.	.
8A\L	.	.	16ff\LL	.	16ccc\LL	.	2A\	-nis	.	2f\	-nis	2f\	-nis	2cc\	-nis	.	.
.	.	.	16ff\	.	16ccc\	.	.	.	.	.	.	.	.	.	.	.	.
8A\	.	.	16ff\	.	16aa\	.	.	.	.	.	.	.	.	.	.	.	.
.	.	.	16ff\	.	16aa\JJ	.	.	.	.	.	.	.	.	.	.	.	.
8A\	.	.	16ff\	.	16ff\LL	.	.	.	.	.	.	.	.	.	.	.	.
.	.	.	16ff\	.	16ff\	.	.	.	.	.	.	.	.	.	.	.	.
8A\J	.	.	16ff\	.	16cc\	.	.	.	.	.	.	.	.	.	.	.	.
.	.	.	16ff\JJ	.	16cc\JJ	.	.	.	.	.	.	.	.	.	.	.	.
=21	=21	=21	=21	=21	=21	=21	=21	=21	=21	=21	=21	=21	=21	=21	=21	=21	=21
!	!	!	!	!	!	!	!	!	!	!LO:LB:g=original	!	!	!	!	!	!LO:LB:g=original	!
8G\L	.	.	16ff\LL	.	16b-\LL	.	2G\	fi-	.	2f\	fi-	2.g\	fi-	2.b-\	fi-	1b-	2ff\
.	.	.	16ff\	.	16b-\	.	.	.	.	.	.	.	.	.	.	.	.
8G\	.	.	16ff\	.	16bb-\	.	.	.	.	.	.	.	.	.	.	.	.
.	.	.	16ff\	.	16bb-\JJ	.	.	.	.	.	.	.	.	.	.	.	.
!	!	!	!	!	!LO:LB:g=original	!	!	!	!	!	!	!	!	!	!	!	!
8G\	.	.	16ff\	.	16gg\LL	.	.	.	.	.	.	.	.	.	.	.	.
.	.	.	16ff\	.	16gg\	.	.	.	.	.	.	.	.	.	.	.	.
8G\J	.	.	16ff\	.	16ee\	.	.	.	.	.	.	.	.	.	.	.	.
.	.	.	16ff\JJ	.	16ee\JJ	.	.	.	.	.	.	.	.	.	.	.	.
8C/L	.	.	16een\LL	.	16cc\LL	.	2C/	-li-	.	4.en\	.	.	.	.	.	.	2een\
.	.	.	16ee\	.	16cc\	.	.	.	.	.	.	.	.	.	.	.	.
8C/	.	.	16ee\	.	16b-\	.	.	.	.	.	.	.	.	.	.	.	.
.	.	.	16ee\	.	16b-\JJ	.	.	.	.	.	.	.	.	.	.	.	.
8C/	.	.	16ee\	.	16g/LL	.	.	.	.	.	.	4g\	-li-	4b-\	-li-	.	.
.	.	.	16ee\	.	16g/	.	.	.	.	.	.	.	.	.	.	.	.
*	*	*	*	*	*	*	*	*	*	*8\right	*	*	*	*	*	*	*
8C/J	.	.	16ee\	.	16b-/	.	.	.	.	8e\	-li-	.	.	.	.	.	.
.	.	.	16ee\JJ	.	16b-/JJ	.	.	.	.	.	.	.	.	.	.	.	.
=22	=22	=22	=22	=22	=22	=22	=22	=22	=22	=22	=22	=22	=22	=22	=22	=22	=22
!	!	!	!	!	!	!	!	!	!	!	!	!LO:TX:a:t=P:problem:materiał w źródle niejasny, ale raczej taki,\njak poniżej.	!	!	!	!	!
*	*	*	*	*	*tremolo	*	*	*	*	*	*	*	*	*	*	*	*
8F\L	.	.	16ff\LL	.	16a/LL	.	4F\	-o-	.	4f\	-o-	4a\	-o-	4a\	-o-	4a\	4ff\
.	.	.	16ff\	.	16a/	.	.	.	.	.	.	.	.	.	.	.	.
8F\	.	.	16ff\	.	16a/	.	.	.	.	.	.	.	.	.	.	.	.
.	.	.	16ff\	.	16a/JJ	.	.	.	.	.	.	.	.	.	.	.	.
*	*	*	*	*	*Xtremolo	*	*	*	*	*	*	*	*	*	*	*	*
8F\	.	.	16ff\	.	16cc\LL	.	4F\	-rum	.	4f\	-rum	4a\	-rum	4a\	-rum	2ff\	2aa\
.	.	.	16ff\	.	16cc\	.	.	.	.	.	.	.	.	.	.	.	.
8F\J	.	.	16ff\	.	16ff\	.	.	.	.	.	.	.	.	.	.	.	.
.	.	.	16ff\JJ	.	16ff\JJ	.	.	.	.	.	.	.	.	.	.	.	.
*	*	*	*	*	*tremolo	*	*	*	*	*	*	*	*	*	*	*	*
8A\L	.	.	16ff\LL	.	16aa\LL	.	4A\	non	.	4f\	non	4cc\	non	4aa\	non	.	.
.	.	.	16ff\	.	16aa\	.	.	.	.	.	.	.	.	.	.	.	.
8A\	.	.	16ff\	.	16aa\	.	.	.	.	.	.	.	.	.	.	.	.
.	.	.	16ff\	.	16aa\	.	.	.	.	.	.	.	.	.	.	.	.
8A\	.	.	16ff\	.	16aa\	.	4A\	mit-	.	4f\	mit-	4cc\	mit-	4aa\	mit-	4ff\	4aa\
.	.	.	16ff\	.	16aa\	.	.	.	.	.	.	.	.	.	.	.	.
8A\J	.	.	16ff\	.	16aa\	.	.	.	.	.	.	.	.	.	.	.	.
.	.	.	16ff\JJ	.	16aa\JJ	.	.	.	.	.	.	.	.	.	.	.	.
=23	=23	=23	=23	=23	=23	=23	=23	=23	=23	=23	=23	=23	=23	=23	=23	=23	=23
!	!	!	!LO:LB:g=original	!	!	!	!	!	!	!	!	!	!	!LO:LB:g=original	!	!	!LO:LB:g=original
8B-\L	.	.	16ff\LL	.	16gg\LL	.	4B-\	-ten-	.	4f\	-ten-	4dd\	-ten-	4gg\	-ten-	4ff\	4gg\
.	.	.	16ff\	.	16gg\	.	.	.	.	.	.	.	.	.	.	.	.
8B-\	.	.	16ff\	.	16gg\	.	.	.	.	.	.	.	.	.	.	.	.
.	.	.	16ff\	.	16gg\	.	.	.	.	.	.	.	.	.	.	.	.
8B-\	.	.	16ff\	.	16gg\	.	4B-\	-dus	.	4f\	-dus	4dd\	-dus	4gg\	-dus	2ff\	2gg\
.	.	.	16ff\	.	16gg\	.	.	.	.	.	.	.	.	.	.	.	.
8B-\J	.	.	16ff\	.	16gg\	.	.	.	.	.	.	.	.	.	.	.	.
.	.	.	16ff\JJ	.	16gg\JJ	.	.	.	.	.	.	.	.	.	.	.	.
8Bn\L	.	.	16ff\LL	.	16gg\LL	.	4Bn\	ca-	.	4f\	ca-	4dd\	ca-	4gg\	ca-	.	.
.	.	.	16ff\	.	16gg\	.	.	.	.	.	.	.	.	.	.	.	.
8B\	.	.	16ff\	.	16gg\	.	.	.	.	.	.	.	.	.	.	.	.
.	.	.	16ff\	.	16gg\	.	.	.	.	.	.	.	.	.	.	.	.
8B\	.	.	16ff\	.	16gg\	.	4B\	-ni-	.	4f\	-ni-	4dd\	-ni-	4gg\	-ni-	4ff\	4gg\
.	.	.	16ff\	.	16gg\	.	.	.	.	.	.	.	.	.	.	.	.
8B\J	.	.	16ff\	.	16gg\	.	.	.	.	.	.	.	.	.	.	.	.
.	.	.	16ff\JJ	.	16gg\JJ	.	.	.	.	.	.	.	.	.	.	.	.
=24	=24	=24	=24	=24	=24	=24	=24	=24	=24	=24	=24	=24	=24	=24	=24	=24	=24
!	!	!	!	!	!	!	!	!	!	!	!	!LO:LB:g=original	!	!	!	!	!
8c\L	.	.	16ee\LL	.	16gg\LL	.	2c\	-bus	.	2e\	-bus	2cc\	-bus	2gg\	-bus	2ee\	2gg\
.	.	.	16ee\	.	16ccc\	.	.	.	.	.	.	.	.	.	.	.	.
8c\	.	.	16ee\	.	16ccc\	.	.	.	.	.	.	.	.	.	.	.	.
.	.	.	16ee\	.	16ccc\JJ	.	.	.	.	.	.	.	.	.	.	.	.
8c\	.	.	16ee\	.	16ccc\LL	.	.	.	.	.	.	.	.	.	.	.	.
.	.	.	16ee\	.	16ccc\	.	.	.	.	.	.	.	.	.	.	.	.
8c\J	.	.	16ee\	.	16ccc\	.	.	.	.	.	.	.	.	.	.	.	.
.	.	.	16ee\JJ	.	16ccc\JJ	.	.	.	.	.	.	.	.	.	.	.	.
8c\L	.	.	16gg\LL	.	16ccc\LL	.	4c\	non	.	4e\	non	4g\	non	4cc\	non	4.ee\	4.ccc\
.	.	.	16gg\	.	16ccc\	.	.	.	.	.	.	.	.	.	.	.	.
8c\	.	.	16gg\	.	16ccc\	.	.	.	.	.	.	.	.	.	.	.	.
.	.	.	16gg\	.	16ccc\JJ	.	.	.	.	.	.	.	.	.	.	.	.
8c\	.	.	16gg\	.	16bb-X\LL	.	4c\	mit-	.	4g\	mit-	4b-X\	mit-	4cc\	mit-	.	.
.	.	.	16gg\	.	16bb-\	.	.	.	.	.	.	.	.	.	.	.	.
8c\J	.	.	16gg\	.	16bb-\	.	.	.	.	.	.	.	.	.	.	8gg\	8bb-X\
.	.	.	16gg\JJ	.	16bb-\JJ	.	.	.	.	.	.	.	.	.	.	.	.
*	*	*	*	*	*Xtremolo	*	*	*	*	*	*	*	*	*	*	*	*
=25	=25	=25	=25	=25	=25	=25	=25	=25	=25	=25	=25	=25	=25	=25	=25	=25	=25
!	!	!	!	!	!LO:LB:g=original	!	!LO:LB:g=original	!	!	!LO:LB:g=original	!	!	!	!	!	!	!
.	.	.	.	.	8qqbb-/	.	.	.	.	.	.	.	.	.	.	.	.
8c\L	.	.	16ff\LL	.	8aa\L	.	4c\	-ten-	.	4f\	-ten-	4a\	-ten-	4cc\	-ten-	2ff\	2aa\
.	.	.	16ff\	.	.	.	.	.	.	.	.	.	.	.	.	.	.
8c\	.	.	16ff\	.	16gg\L	.	.	.	.	.	.	.	.	.	.	.	.
.	.	.	16ff\	.	16aa\JJ	.	.	.	.	.	.	.	.	.	.	.	.
.	.	.	.	.	8qqbb-/	.	.	.	.	.	.	.	.	.	.	.	.
8c\	.	.	16ff\	.	8aa\L	.	4c\	-dus	.	4f\	-dus	4a\	-dus	4cc\	-dus	.	.
.	.	.	16ff\	.	.	.	.	.	.	.	.	.	.	.	.	.	.
8c\J	.	.	16ff\	.	16gg\L	.	.	.	.	.	.	.	.	.	.	.	.
.	.	.	16ff\JJ	.	16aa\JJ	.	.	.	.	.	.	.	.	.	.	.	.
.	.	.	.	.	8qqccc/	.	.	.	.	.	.	.	.	.	.	.	.
8c\L	.	.	16ff\LL	.	8bbn\L	.	4c\	ca-	.	4g\	ca-	4bn\	ca-	4ff\	ca-	2ff\	2aa\
.	.	.	16ff\	.	.	.	.	.	.	.	.	.	.	.	.	.	.
8c\	.	.	16ff\	.	16aa\L	.	.	.	.	.	.	.	.	.	.	.	.
.	.	.	16ff\	.	16bb\JJ	.	.	.	.	.	.	.	.	.	.	.	.
.	.	.	.	.	8qqccc/	.	.	.	.	.	.	.	.	.	.	.	.
8c\	.	.	16ff\	.	8bb\L	.	4c\	-ni-	.	4g\	-ni-	4b\	-ni-	4ff\	-ni-	.	.
.	.	.	16ff\	.	.	.	.	.	.	.	.	.	.	.	.	.	.
8c\J	.	.	16ff\	.	16aa\L	.	.	.	.	.	.	.	.	.	.	.	.
.	.	.	16ff\JJ	.	16bb\JJ	.	.	.	.	.	.	.	.	.	.	.	.
*Xtremolo	*	*	*Xtremolo	*	*	*	*	*	*	*	*	*	*	*	*	*	*
=26	=26	=26	=26	=26	=26	=26	=26	=26	=26	=26	=26	=26	=26	=26	=26	=26	=26
!LO:LB:g=original	!	!	!	!	!	!	!	!	!	!	!	!	!	!	!	!	!
8C/L	.	.	8ee\L	.	8ccc\L	.	4C/	-bus	.	2g\	-bus	2cc\	-bus	2ee\	-bus	4ee\	4gg\
8C`/	.	.	16cc\L	.	16cc\L	.	.	.	.	.	.	.	.	.	.	.	.
.	.	.	16cc\JJ	.	16cc\JJ	.	.	.	.	.	.	.	.	.	.	.	.
8D`/	.	.	16dd\LL	.	16dd\LL	.	4r	.	.	.	.	.	.	.	.	4r	4r
.	.	.	16dd\	.	16dd\	.	.	.	.	.	.	.	.	.	.	.	.
8E`/J	.	.	16ee\	.	16ee\	.	.	.	.	.	.	.	.	.	.	.	.
.	.	.	16ee\JJ	.	16ee\JJ	.	.	.	.	.	.	.	.	.	.	.	.
8F`\L	.	.	16ff\LL	.	16ff\LL	.	2r	.	.	2r	.	2r	.	2r	.	2r	2r
.	.	.	16ff\	.	16ff\	.	.	.	.	.	.	.	.	.	.	.	.
8G`\	.	.	16gg\	.	16gg\	.	.	.	.	.	.	.	.	.	.	.	.
.	.	.	16gg\JJ	.	16gg\JJ	.	.	.	.	.	.	.	.	.	.	.	.
8A`\	.	.	16aa\LL	.	16aa\LL	.	.	.	.	.	.	.	.	.	.	.	.
.	.	.	16aa\	.	16aa\	.	.	.	.	.	.	.	.	.	.	.	.
8Bn`\J	.	.	16bbn\	.	16bbn\	.	.	.	.	.	.	.	.	.	.	.	.
.	.	.	16bb\JJ	.	16bb\JJ	.	.	.	.	.	.	.	.	.	.	.	.
=27	=27	=27	=27	=27	=27	=27	=27	=27	=27	=27	=27	=27	=27	=27	=27	=27	=27
!	!	!	!	!	!	!	!LO:TX:a:t=24	!	!	!LO:TX:a:t=24	!	!LO:TX:a:t=24	!	!	!	!LO:TX:a:t=5	!LO:TX:a:t=5
4c\	.	.	4ccc\	.	4ccc\	.	00r	.	.	00r	.	00r	.	1r	.	00r	00r
!	!	!	!	!	!LO:N:vis=8	!	!	!	!	!	!	!	!	!	!	!	!
8.C/L	.	.	8.c/L	.	8.c/L	.	.	.	.	.	.	.	.	.	.	.	.
16C/Jk	.	.	16c/Jk	.	16c/Jk	.	.	.	.	.	.	.	.	.	.	.	.
!	!	!	!LO:LB:g=original	!	!LO:LB:g=original	!	!	!	!	!	!	!	!	!LO:TX:a:i:t=Solo	!	!	!
4C/	.	.	4c/	.	4c/	.	.	.	.	.	.	.	.	.	.	.	.
4r	.	.	4r	.	4r	.	.	.	.	.	.	.	.	.	.	.	.
=28	=28	=28	=28	=28	=28	=28	=28	=28	=28	=28	=28	=28	=28	=28	=28	=28	=28
4r	.	.	8r	.	8r	.	.	.	.	.	.	.	.	2gg\	An-	.	.
.	.	.	8e/L	.	8g/L	.	.	.	.	.	.	.	.	.	.	.	.
!	!	!LO:DY:b	!	!	!	!	!	!	!	!	!	!	!	!	!	!	!
4C/	.	p	8e/	.	8g/	.	.	.	.	.	.	.	.	.	.	.	.
.	.	.	8e/J	.	8g/J	.	.	.	.	.	.	.	.	.	.	.	.
*	*	*	*	*	*	*	*	*	*	*	*	*	*	*8\right	*	*	*
4C/	.	.	8r	.	8r	.	.	.	.	.	.	.	.	8gg\L	.	.	.
.	.	.	8g/L	.	8ee\L	.	.	.	.	.	.	.	.	8ee\J	.	.	.
4C/	.	.	8f/	.	8dd\	.	.	.	.	.	.	.	.	8dd\L	-ge-	.	.
.	.	.	8e/J	.	8cc\J	.	.	.	.	.	.	.	.	8cc\J	.	.	.
=29	=29	=29	=29	=29	=29	=29	=29	=29	=29	=29	=29	=29	=29	=29	=29	=29	=29
4r	.	.	8r	.	8r	.	.	.	.	.	.	.	.	2cc\	-lo-	.	.
.	.	.	8e/L	.	8cc\L	.	.	.	.	.	.	.	.	.	.	.	.
4G\	4	.	8e/	.	8cc\	.	.	.	.	.	.	.	.	.	.	.	.
.	.	.	8e/J	.	8cc\J	.	.	.	.	.	.	.	.	.	.	.	.
!	!	!	!	!	!	!	!	!	!	!	!	!	!	!LO:LB:g=original	!	!	!
*	*	*	*	*	*	*	*	*	*	*	*	*	*	*16\right	*	*	*
4G\	3	.	4e/	.	4cc\	.	.	.	.	.	.	.	.	16bn\LL	.	.	.
.	.	.	.	.	.	.	.	.	.	.	.	.	.	16cc\	.	.	.
.	.	.	.	.	.	.	.	.	.	.	.	.	.	16b\	.	.	.
.	.	.	.	.	.	.	.	.	.	.	.	.	.	16cc\JJ	.	.	.
4r	.	.	4r	.	4r	.	.	.	.	.	.	.	.	16dd\LL	.	.	.
.	.	.	.	.	.	.	.	.	.	.	.	.	.	16ee\	.	.	.
.	.	.	.	.	.	.	.	.	.	.	.	.	.	16dd\	.	.	.
.	.	.	.	.	.	.	.	.	.	.	.	.	.	16ee\JJ	.	.	.
=30	=30	=30	=30	=30	=30	=30	=30	=30	=30	=30	=30	=30	=30	=30	=30	=30	=30
4GG/	.	.	8dd\L	.	8ff\L	.	.	.	.	.	.	.	.	16ff\LL	.	.	.
.	.	.	.	.	.	.	.	.	.	.	.	.	.	16gg\	.	.	.
.	.	.	8cc\	.	8ee\	.	.	.	.	.	.	.	.	16ee\	.	.	.
.	.	.	.	.	.	.	.	.	.	.	.	.	.	16ff\JJ	.	.	.
4r	.	.	8bni\	.	8dd\	.	.	.	.	.	.	.	.	16dd\LL	.	.	.
.	.	.	.	.	.	.	.	.	.	.	.	.	.	16ee\	.	.	.
.	.	.	8a\J	.	8cc\J	.	.	.	.	.	.	.	.	16cc\	.	.	.
.	.	.	.	.	.	.	.	.	.	.	.	.	.	16dd\JJ	.	.	.
4GG/	.	.	8g\L	.	8bn\L	.	.	.	.	.	.	.	.	8bni\L	.	.	.
.	.	.	8b\	.	8dd\	.	.	.	.	.	.	.	.	8dd\J	.	.	.
4r	.	.	8cc\	.	8ee\	.	.	.	.	.	.	.	.	8ee\L	-rum	.	.
.	.	.	8dd\J	.	8ff\J	.	.	.	.	.	.	.	.	8ff\J	.	.	.
=31	=31	=31	=31	=31	=31	=31	=31	=31	=31	=31	=31	=31	=31	=31	=31	=31	=31
!LO:LB:g=original	!	!	!	!	!	!	!	!	!	!	!	!	!	!	!	!	!
.	.	.	8qqee/	.	8qqgg/	.	.	.	.	.	.	.	.	8qqgg/	.	.	.
!	!	!	!LO:SIC:s=4dd:v	!	!	!	!	!	!	!	!	!	!	!	!	!	!
4C/	3 2	.	4ee\	.	4ff\	.	00r	.	.	00r	.	00r	.	4ff\	es-	1r	1r
!LO:TX:a:t=P:problem:niezrozumiałe cyfrowanie	!	!	!	!	!	!	!	!	!	!	!	!	!	!	!	!	!
4C/	.	.	4cc\	.	4ee\	.	.	.	.	.	.	.	.	4ee\	-ca	.	.
8C'\L	.	f	2r	.	2r	.	.	.	.	.	.	.	.	2r	.	.	.
*16\right	*	*	*	*	*	*	*	*	*	*	*	*	*	*	*	*	*
16D'\L	.	.	.	.	.	.	.	.	.	.	.	.	.	.	.	.	.
16E'\JJ	.	.	.	.	.	.	.	.	.	.	.	.	.	.	.	.	.
16F'\LL	.	.	.	.	.	.	.	.	.	.	.	.	.	.	.	.	.
16G'\	.	.	.	.	.	.	.	.	.	.	.	.	.	.	.	.	.
16A\	.	.	.	.	.	.	.	.	.	.	.	.	.	.	.	.	.
16B-\JJ	.	.	.	.	.	.	.	.	.	.	.	.	.	.	.	.	.
=32	=32	=32	=32	=32	=32	=32	=32	=32	=32	=32	=32	=32	=32	=32	=32	=32	=32
!	!	!	!LO:LB:g=original	!	!LO:LB:g=original	!	!	!	!	!	!	!	!	!	!	!LO:LB:g=original	!
4c\	.	.	8r	.	8r	.	.	.	.	.	.	.	.	2.cc\	nu-	2.e/	2.cc\
.	.	.	8e/L	.	8cc\L	.	.	.	.	.	.	.	.	.	.	.	.
4r	.	.	8e/	.	8cc\	.	.	.	.	.	.	.	.	.	.	.	.
.	.	.	8e/J	.	8cc\J	.	.	.	.	.	.	.	.	.	.	.	.
4C/	.	.	8r	.	8r	.	.	.	.	.	.	.	.	.	.	.	.
.	.	.	8g/L	.	8ee\L	.	.	.	.	.	.	.	.	.	.	.	.
4r	.	.	8g/	.	8ee\	.	.	.	.	.	.	.	.	4ee\	-tri-	4g/	4ee\
.	.	.	8g/J	.	8ee\J	.	.	.	.	.	.	.	.	.	.	.	.
=33	=33	=33	=33	=33	=33	=33	=33	=33	=33	=33	=33	=33	=33	=33	=33	=33	=33
!	!	!	!	!	!	!	!	!	!	!	!	!	!	!LO:LB:g=original	!	!	!
.	.	.	8qqg/	.	8qqee/	.	.	.	.	.	.	.	.	8qqee/	.	8qqg/	8qqee/
4G\	.	.	4f/	.	4dd\	.	.	.	.	.	.	.	.	4dd\	-vi-	4f/	4dd\
4C/	.	.	4e/	.	4cc\	.	.	.	.	.	.	.	.	4cc\	-ſti	4e/	4cc\
4r	.	.	8e/L	.	8cc\L	.	.	.	.	.	.	.	.	2r	.	8e/L	8cc\L
.	.	.	8e/	.	8cc\	.	.	.	.	.	.	.	.	.	.	8e/	8cc\
4r	.	.	8g/	.	8dd\	.	.	.	.	.	.	.	.	.	.	8g/	8dd\
.	.	.	8g/J	.	8dd\J	.	.	.	.	.	.	.	.	.	.	8g/J	8dd\J
=34	=34	=34	=34	=34	=34	=34	=34	=34	=34	=34	=34	=34	=34	=34	=34	=34	=34
4C/	.	.	8r	.	8r	.	.	.	.	.	.	.	.	2cc\	po-	4cc\	4ee\
.	.	.	8cc\L	.	8ee\L	.	.	.	.	.	.	.	.	.	.	.	.
4r	.	.	8cc\	.	8ee\	.	.	.	.	.	.	.	.	.	.	4r	4r
.	.	.	8cc\J	.	8ee\J	.	.	.	.	.	.	.	.	.	.	.	.
4C/	.	.	8r	.	8r	.	.	.	.	.	.	.	.	8cc\L	.	2r	2r
.	.	.	8g/L	.	8ee\L	.	.	.	.	.	.	.	.	8gg\J	.	.	.
4r	.	.	8g/	.	8ee\	.	.	.	.	.	.	.	.	8ee\	-pu-	.	.
.	.	.	8g/J	.	8ee\J	.	.	.	.	.	.	.	.	8cc\	-lum	.	.
=35	=35	=35	=35	=35	=35	=35	=35	=35	=35	=35	=35	=35	=35	=35	=35	=35	=35
!	!	!	!	!	!	!	!	!	!	!	!	!	!	!	!	!	!LO:LB:g=original
.	.	.	8qqg/	.	8qqee/	.	.	.	.	.	.	.	.	8qqee/	.	8qqg/	8qqee/
4GG/	.	.	4f/	.	4dd\	.	00r	.	.	00r	.	00r	.	4dd\	tu-	4f/	4dd\
4C/	.	.	8e/	.	8cc\	.	.	.	.	.	.	.	.	4cc\	-um	8e/L	8cc\L
.	.	.	8r	.	8r	.	.	.	.	.	.	.	.	.	.	8g/J	8dd\J
!	!	!	!	!	!LO:LB:g=original	!	!	!	!	!	!	!	!	!	!	!	!
2r	.	.	8c/L	.	8e/L	.	.	.	.	.	.	.	.	4r	.	8cc\L	8ee\L
.	.	.	8d/	.	8f/	.	.	.	.	.	.	.	.	.	.	8dd\	8ff\
.	.	.	8e/	.	8g/	.	.	.	.	.	.	.	.	4cc\	et	8ee\	8gg\
.	.	.	8f/J	.	8a/J	.	.	.	.	.	.	.	.	.	.	8ff\J	8aa\J
=36	=36	=36	=36	=36	=36	=36	=36	=36	=36	=36	=36	=36	=36	=36	=36	=36	=36
!	!	!	!LO:LB:g=original	!	!	!	!	!	!	!	!	!	!	!	!	!	!
1C	.	.	8g/L	.	8b-X\L	.	.	.	.	.	.	.	.	2cc\	pa-	8gg\L	8bb-X\L
.	.	.	8f/	.	8a\	.	.	.	.	.	.	.	.	.	.	8ff\	8aa\
.	.	.	8e/	.	8g\	.	.	.	.	.	.	.	.	.	.	8ee\	8gg\
.	.	.	8d/J	.	8f\J	.	.	.	.	.	.	.	.	.	.	8dd\J	8ff\J
!	!	!	!	!	!LO:TX:a:t=P:problem:mixed beam	!	!	!	!	!	!	!	!	!	!	!	!
.	.	.	8c/L	.	8e/L	.	.	.	.	.	.	.	.	4cc\	-nem	8cc\L	8ee\L
.	.	.	8B-X/	.	8d/	.	.	.	.	.	.	.	.	.	.	8b-\	8dd\
.	.	.	8A/	.	8c/	.	.	.	.	.	.	.	.	4cc\	de	8a\	8cc\
.	.	.	8g/J	.	8b-\J	.	.	.	.	.	.	.	.	.	.	8g\J	8b-\J
=37	=37	=37	=37	=37	=37	=37	=37	=37	=37	=37	=37	=37	=37	=37	=37	=37	=37
!	!	!	!	!	!	!	!	!	!	!	!	!	!	!	!	!LO:LB:g=original	!
*tremolo	*	*	*	*	*	*	*	*	*	*	*	*	*	*	*	*	*
8F\L	.	.	8f/L	.	8a/L	.	.	.	.	.	.	.	.	2cc\	Coe-	4f/	4a/
8F\	.	.	8a/	.	8cc/	.	.	.	.	.	.	.	.	.	.	.	.
8F\	.	.	8a/	.	8cc/	.	.	.	.	.	.	.	.	.	.	4r	4r
8F\J	.	.	8a/J	.	8cc/J	.	.	.	.	.	.	.	.	.	.	.	.
*	*	*	*tremolo	*	*tremolo	*	*	*	*	*	*	*	*	*	*	*	*
8F\L	.	.	8a/L	.	8cc\L	.	.	.	.	.	.	.	.	8cc\L	.	2r	2r
8F\	.	.	8a/	.	8cc\	.	.	.	.	.	.	.	.	16dd\L	.	.	.
.	.	.	.	.	.	.	.	.	.	.	.	.	.	16ee\JJ	.	.	.
8F\	.	.	8a/	.	8cc\	.	.	.	.	.	.	.	.	16ff\LL	.	.	.
.	.	.	.	.	.	.	.	.	.	.	.	.	.	16ee\	.	.	.
8F\J	.	.	8a/J	.	8cc\J	.	.	.	.	.	.	.	.	16ff\	.	.	.
.	.	.	.	.	.	.	.	.	.	.	.	.	.	16gg\JJ	.	.	.
=38	=38	=38	=38	=38	=38	=38	=38	=38	=38	=38	=38	=38	=38	=38	=38	=38	=38
!LO:LB:g=original	!	!	!	!	!	!	!	!	!	!	!	!	!	!LO:LB:g=original	!	!	!
8F\L	.	.	8a/L	.	8cc\L	.	.	.	.	.	.	.	.	4aa\	.	4r	4r
8F\	.	.	8a/	.	8cc\	.	.	.	.	.	.	.	.	.	.	.	.
8F\	.	.	8a/	.	8cc\	.	.	.	.	.	.	.	.	4r	.	8ff\	8aa\
8F\J	.	.	8a/J	.	8cc\J	.	.	.	.	.	.	.	.	.	.	8r	8r
8F\L	.	.	8a/L	.	8cc\L	.	.	.	.	.	.	.	.	2r	.	8cc\	8ff\
8F\	.	.	8a/	.	8cc\	.	.	.	.	.	.	.	.	.	.	8r	8r
8F\	.	.	8a/	.	8cc\	.	.	.	.	.	.	.	.	.	.	8a\	8cc\
8F\J	.	.	8a/J	.	8cc\J	.	.	.	.	.	.	.	.	.	.	8r	8r
=39	=39	=39	=39	=39	=39	=39	=39	=39	=39	=39	=39	=39	=39	=39	=39	=39	=39
!	!	!	!	!	!	!	!	!	!	!	!	!	!	!	!	!LO:TX:a:t=1	!LO:TX:a:t=1
8E\L	.	.	8g/L	.	8cc\L	.	00r	.	.	00r	.	00r	.	2cc\	.	1r	1r
8E\	.	.	8g/	.	8cc\	.	.	.	.	.	.	.	.	.	.	.	.
8E\	.	.	8g/	.	8cc\	.	.	.	.	.	.	.	.	.	.	.	.
8E\J	.	.	8g/J	.	8cc\J	.	.	.	.	.	.	.	.	.	.	.	.
8E\L	.	.	8g/L	.	8cc\L	.	.	.	.	.	.	.	.	16cc\LL	.	.	.
.	.	.	.	.	.	.	.	.	.	.	.	.	.	16dd\	.	.	.
8E\	.	.	8g/	.	8cc\	.	.	.	.	.	.	.	.	16cc\	.	.	.
.	.	.	.	.	.	.	.	.	.	.	.	.	.	16dd\JJ	.	.	.
8E\	.	.	8g/	.	8cc\	.	.	.	.	.	.	.	.	16ee\LL	.	.	.
.	.	.	.	.	.	.	.	.	.	.	.	.	.	16ff\	.	.	.
8E\J	.	.	8g/J	.	8cc\J	.	.	.	.	.	.	.	.	16gg\	.	.	.
.	.	.	.	.	.	.	.	.	.	.	.	.	.	16aa\JJ	.	.	.
=40	=40	=40	=40	=40	=40	=40	=40	=40	=40	=40	=40	=40	=40	=40	=40	=40	=40
8E\L	.	.	8g/L	.	8cc\L	.	.	.	.	.	.	.	.	4bb-X\	.	4r	4r
8E\	.	.	8g/	.	8cc\	.	.	.	.	.	.	.	.	.	.	.	.
8E\	.	.	8g/	.	8cc\	.	.	.	.	.	.	.	.	4r	.	8gg\	8bb-X\
8E\J	.	.	8g/J	.	8cc\J	.	.	.	.	.	.	.	.	.	.	8r	8r
8E\L	.	.	8g/L	.	8cc\L	.	.	.	.	.	.	.	.	2r	.	8ee\	8gg\
8E\	.	.	8g/	.	8cc\	.	.	.	.	.	.	.	.	.	.	8r	8r
8E\	.	.	8g/	.	8cc\	.	.	.	.	.	.	.	.	.	.	8cc\	8een\
8E\J	.	.	8g/J	.	8cc\J	.	.	.	.	.	.	.	.	.	.	8r	8r
*Xtremolo	*	*	*Xtremolo	*	*Xtremolo	*	*	*	*	*	*	*	*	*	*	*	*
=41	=41	=41	=41	=41	=41	=41	=41	=41	=41	=41	=41	=41	=41	=41	=41	=41	=41
!	!	!	!	!	!LO:LB:g=original	!	!	!	!	!	!	!	!	!	!	!	!
!	!	!	!	!	!	!	!	!	!	!	!	!	!	!	!	!LO:TX:a:t=7	!LO:TX:a:t=7
8r	.	.	8r	.	8r	.	.	.	.	.	.	.	.	2aa\	.	00r	00r
8F\L	.	.	8a/L	.	8cc\L	.	.	.	.	.	.	.	.	.	.	.	.
8F\	.	.	8a/	.	8cc\	.	.	.	.	.	.	.	.	.	.	.	.
8F\J	.	.	8a/J	.	8cc\J	.	.	.	.	.	.	.	.	.	.	.	.
8r	.	.	8r	.	8r	.	.	.	.	.	.	.	.	2een\	.	.	.
8G\L	.	.	8e/L	.	8cc\L	.	.	.	.	.	.	.	.	.	.	.	.
8G\	.	.	8e/	.	8cc\	.	.	.	.	.	.	.	.	.	.	.	.
8G\J	.	.	8e/J	.	8cc\J	.	.	.	.	.	.	.	.	.	.	.	.
=42	=42	=42	=42	=42	=42	=42	=42	=42	=42	=42	=42	=42	=42	=42	=42	=42	=42
!	!	!	!LO:LB:g=original	!	!	!	!	!	!	!	!	!	!	!	!	!	!
8r	.	.	8r	.	8r	.	.	.	.	.	.	.	.	2ff\	.	.	.
8A\L	.	.	8f/L	.	8cc\L	.	.	.	.	.	.	.	.	.	.	.	.
8A\	.	.	8f/	.	8cc\	.	.	.	.	.	.	.	.	.	.	.	.
8A\J	.	.	8f/J	.	8cc\J	.	.	.	.	.	.	.	.	.	.	.	.
8r	.	.	8r	.	8r	.	.	.	.	.	.	.	.	2ee-X\	.	.	.
8A\L	.	.	8f/L	.	8cc\L	.	.	.	.	.	.	.	.	.	.	.	.
8A\	.	.	8f/	.	8cc\	.	.	.	.	.	.	.	.	.	.	.	.
8A\J	.	.	8f/J	.	8cc\J	.	.	.	.	.	.	.	.	.	.	.	.
=43	=43	=43	=43	=43	=43	=43	=43	=43	=43	=43	=43	=43	=43	=43	=43	=43	=43
8r	.	.	8r	.	8r	.	00r	.	.	00r	.	00r	.	2dd\	.	.	.
8B-\L	.	.	8f/L	.	8dd\L	.	.	.	.	.	.	.	.	.	.	.	.
8B-\	.	.	8f/	.	8dd\	.	.	.	.	.	.	.	.	.	.	.	.
8B-\J	.	.	8f/J	.	8dd\J	.	.	.	.	.	.	.	.	.	.	.	.
!LO:LB:g=original	!	!	!	!	!	!	!	!	!	!	!	!	!	!	!	!	!
8r	.	.	8r	.	8r	.	.	.	.	.	.	.	.	4dd\	-lo	.	.
8A\L	.	.	8f#X/L	.	8dd\L	.	.	.	.	.	.	.	.	.	.	.	.
8A\	.	.	8f#/	.	8dd\	.	.	.	.	.	.	.	.	4cc\	de	.	.
8A\J	.	.	8f#/J	.	8dd\J	.	.	.	.	.	.	.	.	.	.	.	.
=44	=44	=44	=44	=44	=44	=44	=44	=44	=44	=44	=44	=44	=44	=44	=44	=44	=44
!	!	!	!	!	!	!	!	!	!	!	!	!	!	!LO:LB:g=original	!	!	!
!LO:TX:a:t=P:problem:kasownik przed pauzą na wysokości A	!	!	!	!	!	!	!	!	!	!	!	!	!	!	!	!	!
8r	.	.	8r	.	8r	.	.	.	.	.	.	.	.	2bn\	Coe-	.	.
8Gn\L	.	.	8g/L	.	8dd\L	.	.	.	.	.	.	.	.	.	.	.	.
8G\	.	.	8g/	.	8dd\	.	.	.	.	.	.	.	.	.	.	.	.
!LO:TX:a:t=P:problem:kasownik przed dźwiękiem na wysokości A	!	!	!	!	!	!	!	!	!	!	!	!	!	!	!	!	!
8F\J	.	.	8g/J	.	8dd\J	.	.	.	.	.	.	.	.	.	.	.	.
8r	.	.	8r	.	8r	.	.	.	.	.	.	.	.	4cc\	-lo	.	.
8E\L	.	.	8g/L	.	8cc\L	.	.	.	.	.	.	.	.	.	.	.	.
8E\	.	.	8g/	.	8cc\	.	.	.	.	.	.	.	.	4b-X\	de	.	.
8E\J	.	.	8g/J	.	8cc\J	.	.	.	.	.	.	.	.	.	.	.	.
=45	=45	=45	=45	=45	=45	=45	=45	=45	=45	=45	=45	=45	=45	=45	=45	=45	=45
!	!	!	!	!	!LO:LB:g=original	!	!	!	!	!	!	!	!	!	!	!	!
8r	.	.	8r	.	8r	.	.	.	.	.	.	.	.	2a\	Coe-	0r	0r
8F\L	.	.	8a/L	.	8cc\L	.	.	.	.	.	.	.	.	.	.	.	.
8F\	.	.	8a/	.	8ff\	.	.	.	.	.	.	.	.	.	.	.	.
8F\J	.	.	8a/J	.	8ff\J	.	.	.	.	.	.	.	.	.	.	.	.
8r	.	.	8r	.	8r	.	.	.	.	.	.	.	.	4a\	-lo	.	.
8E\L	.	.	8a/L	.	8ff\L	.	.	.	.	.	.	.	.	.	.	.	.
8E\	.	.	8a/	.	8ff\	.	.	.	.	.	.	.	.	4g\	et	.	.
8E\J	.	.	8a/J	.	8ff\J	.	.	.	.	.	.	.	.	.	.	.	.
=46	=46	=46	=46	=46	=46	=46	=46	=46	=46	=46	=46	=46	=46	=46	=46	=46	=46
!	!	!	!LO:LB:g=original	!	!	!	!	!	!	!	!	!	!	!	!	!	!
8r	.	.	8r	.	8r	.	.	.	.	.	.	.	.	8a\L	pa-	.	.
8D\L	.	.	8a/L	.	8ff\L	.	.	.	.	.	.	.	.	8ff\J	.	.	.
8D\	.	.	8a/	.	8ff\	.	.	.	.	.	.	.	.	2.ff\	-nem	.	.
8D\J	.	.	8a/J	.	8ff\J	.	.	.	.	.	.	.	.	.	.	.	.
8r	.	.	8r	.	8r	.	.	.	.	.	.	.	.	.	.	.	.
8C/L	.	.	8a/L	.	8ff\L	.	.	.	.	.	.	.	.	.	.	.	.
8C/	.	.	8a/	.	8ff\	.	.	.	.	.	.	.	.	.	.	.	.
8C/J	.	.	8a/J	.	8ff\J	.	.	.	.	.	.	.	.	.	.	.	.
=47	=47	=47	=47	=47	=47	=47	=47	=47	=47	=47	=47	=47	=47	=47	=47	=47	=47
!LO:TX:a:t=P:problem:kasownik na wysokości E	!	!	!	!	!	!	!	!	!	!	!	!	!	!	!	!	!
4BBn/	.	.	8r	.	8r	.	00r	.	.	00r	.	00r	.	4.ff\	prae-	1r	1r
.	.	.	8a/L	.	8ff\L	.	.	.	.	.	.	.	.	.	.	.	.
4BB/	.	.	8a/	.	8ff\	.	.	.	.	.	.	.	.	.	.	.	.
.	.	.	8a/J	.	8ff\J	.	.	.	.	.	.	.	.	16aa\LL	-ſti-	.	.
.	.	.	.	.	.	.	.	.	.	.	.	.	.	16gg\JJ	.	.	.
4BB/	.	.	8r	.	8r	.	.	.	.	.	.	.	.	4ff\	-ti-	.	.
.	.	.	8a/L	.	8ff\L	.	.	.	.	.	.	.	.	.	.	.	.
4BB/	.	.	8a/	.	8ff\	.	.	.	.	.	.	.	.	4a\	-ſti	.	.
.	.	.	8a/J	.	8ff\J	.	.	.	.	.	.	.	.	.	.	.	.
=48	=48	=48	=48	=48	=48	=48	=48	=48	=48	=48	=48	=48	=48	=48	=48	=48	=48
!LO:LB:g=original	!	!	!	!	!	!	!	!	!	!	!	!	!	!	!	!	!
!	!	!	!	!	!	!	!	!	!	!	!	!	!	!LO:TX:a:t=P:problem:eius poprawione na eis	!	!	!
2C/	.	.	8r	.	8r	.	.	.	.	.	.	.	.	2a\	e-	2r	2r
.	.	.	8a/L	.	8ff\L	.	.	.	.	.	.	.	.	.	.	.	.
.	.	.	8a/	.	8ff\	.	.	.	.	.	.	.	.	.	.	.	.
.	.	.	8a/J	.	8ff\J	.	.	.	.	.	.	.	.	.	.	.	.
*tremolo	*	*	*	*	*	*	*	*	*	*	*	*	*	*	*	*	*
8C/L	.	.	4g/	.	4ee\	.	.	.	.	.	.	.	.	4g\	-is	8ee\L	8gg\L
8C/	.	.	.	.	.	.	.	.	.	.	.	.	.	.	.	8ee\J	8gg\J
!	!	!	!	!	!	!	!	!	!	!	!	!	!	!	!	!LO:TX:a:i:t=t	!LO:TX:a:i:t=t
!	!	!	!	!	!	!	!	!	!	!	!	!	!	!	!	!LO:N:vis=8	!LO:N:vis=8
8C/	.	.	4r	.	4r	.	.	.	.	.	.	.	.	4r	.	8.ee\L	8.gg\L
8C/J	.	.	.	.	.	.	.	.	.	.	.	.	.	.	.	.	.
*Xtremolo	*	*	*	*	*	*	*	*	*	*	*	*	*	*	*	*32\right	*32\right
.	.	.	.	.	.	.	.	.	.	.	.	.	.	.	.	32dd\LL	32ff\LL
.	.	.	.	.	.	.	.	.	.	.	.	.	.	.	.	32ee\JJJ	32gg\JJJ
=49	=49	=49	=49	=49	=49	=49	=49	=49	=49	=49	=49	=49	=49	=49	=49	=49	=49
!	!	!	!	!	!LO:LB:g=original	!	!	!	!	!	!	!	!	!LO:LB:g=original	!	!	!
4F\	.	.	8r	.	8r	.	.	.	.	.	.	.	.	4.ff\	prae-	4ff\	4aa\
.	.	.	8a/L	.	8ff\L	.	.	.	.	.	.	.	.	.	.	.	.
4r	.	.	8a/	.	8ff\	.	.	.	.	.	.	.	.	.	.	4r	4r
.	.	.	8a/J	.	8ff\J	.	.	.	.	.	.	.	.	16aa\LL	-sti-	.	.
.	.	.	.	.	.	.	.	.	.	.	.	.	.	16gg\JJ	.	.	.
4r	.	.	8r	.	8r	.	.	.	.	.	.	.	.	4ff\	-ti-	2r	2r
.	.	.	8a/L	.	8ff\L	.	.	.	.	.	.	.	.	.	.	.	.
4BBn/	7 5	.	8a/	.	8ff\	.	.	.	.	.	.	.	.	4a\	-sti	.	.
.	.	.	8a/J	.	8ff\J	.	.	.	.	.	.	.	.	.	.	.	.
=50	=50	=50	=50	=50	=50	=50	=50	=50	=50	=50	=50	=50	=50	=50	=50	=50	=50
!	!	!	!	!	!	!	!	!	!	!	!	!	!	!	!	!LO:LB:g=original	!
!	!	!	!	!	!	!	!	!	!	!	!	!	!	!LO:TX:a:t=P:problem:eius\n poprawione na eis	!	!	!
2C/	6 4	.	8r	.	8r	.	.	.	.	.	.	.	.	4.cc\	e-	2r	2r
.	.	.	8a/L	.	8ff\L	.	.	.	.	.	.	.	.	.	.	.	.
.	.	.	8a/	.	8ff\	.	.	.	.	.	.	.	.	.	.	.	.
.	.	.	8a/J	.	8ff\J	.	.	.	.	.	.	.	.	8a\	.	.	.
!	!	!	!LO:LB:g=original	!	!	!	!	!	!	!	!	!	!	!	!	!	!
4C/	5 3	.	4g/	.	4een\	.	.	.	.	.	.	.	.	4g\	-is	8r	8r
.	.	.	.	.	.	.	.	.	.	.	.	.	.	.	.	8qqcc/	8qqaa/
.	.	.	.	.	.	.	.	.	.	.	.	.	.	.	.	8b-X\L	8gg\L
.	.	.	.	.	.	.	.	.	.	.	.	.	.	.	.	8qqb-/	8qqgg/
4r	.	.	4r	.	4r	.	.	.	.	.	.	.	.	4r	.	8a\	8ff\
.	.	.	.	.	.	.	.	.	.	.	.	.	.	.	.	8qqa/	8qqff/
.	.	.	.	.	.	.	.	.	.	.	.	.	.	.	.	8g\J	8ee\J
=51	=51	=51	=51	=51	=51	=51	=51	=51	=51	=51	=51	=51	=51	=51	=51	=51	=51
4FF/	.	.	2a/	.	2cc\	.	2.F\	Ec-	.	2.f\	Ec-	2.a\	Ec-	2.cc\	Ec-	4a/	4ff\
4FF/	.	.	.	.	.	.	.	.	.	.	.	.	.	.	.	4r	4r
4FF/	.	.	8a/L	.	8cc\L	.	.	.	.	.	.	.	.	.	.	2r	2r
.	.	.	16b-/L	.	16dd\L	.	.	.	.	.	.	.	.	.	.	.	.
.	.	.	16a/JJ	.	16cc\JJ	.	.	.	.	.	.	.	.	.	.	.	.
4FF/	.	.	8g/L	.	8b-\L	.	4F\	-ce	.	4f\	-ce	4a\	-ce	4cc\	-ce	.	.
.	.	.	8a/J	.	8cc\J	.	.	.	.	.	.	.	.	.	.	.	.
=52	=52	=52	=52	=52	=52	=52	=52	=52	=52	=52	=52	=52	=52	=52	=52	=52	=52
!	!	!	!	!	!	!	!	!	!	!	!	!LO:LB:g=original	!	!	!	!	!
!	!	!	!LO:TX:b:t=P:problem:mixed beam	!	!LO:TX:b:t=P:problem:mixed beam	!	!	!	!	!	!	!	!	!	!	!	!
4FF/	.	.	8b-\L	.	8dd\L	.	4F\	pa-	.	4f\	pa-	4b-\	pa-	4dd\	pa-	8r	8r
.	.	.	8B-/	.	8d/	.	.	.	.	.	.	.	.	.	.	8b-\L	8dd\L
!	!	!	!	!	!LO:SIC:s=8e-:v	!	!	!	!	!	!	!	!	!	!	!	!
4r	.	.	8c/	.	8e/	.	4F\	-nis	.	4f\	-nis	4b-\	-nis	4dd\	-nis	8cc\	8ee-X\
.	.	.	8d/J	.	8f/J	.	.	.	.	.	.	.	.	.	.	8dd\J	8ff\J
!	!	!	!LO:SIC:s=8e-:v	!	!	!	!	!	!	!	!	!	!	!	!	!	!
2r	.	.	8e/L	.	8g/L	.	2r	.	.	2r	.	2r	.	4r	.	8ee-X\L	8gg\L
.	.	.	8f/	.	8a/	.	.	.	.	.	.	.	.	.	.	8ff\	8aa\
.	.	.	8g/	.	8b-/	.	.	.	.	.	.	.	.	4r	.	8gg\	8bb-\
.	.	.	8a/J	.	8cc/J	.	.	.	.	.	.	.	.	.	.	8aa\J	8ccc\J
=53	=53	=53	=53	=53	=53	=53	=53	=53	=53	=53	=53	=53	=53	=53	=53	=53	=53
!	!	!	!	!	!LO:PB:g=original	!	!LO:LB:g=original	!	!	!LO:LB:g=original	!	!	!	!	!	!	!LO:LB:g=original
4FF/	.	.	2b-\	.	2dd\	.	2.F\	An-	.	2.f\	An-	2.b-\	an-	2.dd\	An-	4bb-\	4ddd\
4FF/	.	.	.	.	.	.	.	.	.	.	.	.	.	.	.	4r	4r
4FF/	.	.	8b-\L	.	8dd\L	.	.	.	.	.	.	.	.	.	.	2r	2r
.	.	.	16dd\L	.	16ff\L	.	.	.	.	.	.	.	.	.	.	.	.
.	.	.	16cc\JJ	.	16ee\JJ	.	.	.	.	.	.	.	.	.	.	.	.
.	.	.	8qqee/	.	8qqgg/	.	.	.	.	.	.	.	.	.	.	.	.
4FF/	.	.	8dd\L	.	8ff\L	.	4F\	-ge-	.	4f\	-ge-	4b-\	-ge-	4dd\	-ge-	.	.
.	.	.	16cc\L	.	16ee\L	.	.	.	.	.	.	.	.	.	.	.	.
.	.	.	16b-\JJ	.	16dd\JJ	.	.	.	.	.	.	.	.	.	.	.	.
=54	=54	=54	=54	=54	=54	=54	=54	=54	=54	=54	=54	=54	=54	=54	=54	=54	=54
!	!	!	!	!	!	!	!	!	!	!	!	!	!	!LO:LB:g=original	!	!	!
!	!	!	!	!	!LO:TX:b:t=P:problem:mixed beam	!	!	!	!	!	!	!	!	!	!	!	!
4FF/	.	.	8a/L	.	8cc\L	.	4F\	-lo-	.	4f\	-lo-	4a\	-lo-	4cc\	-lo-	8r	8r
.	.	.	8A/	.	8c/	.	.	.	.	.	.	.	.	.	.	8a/L	8cc\L
4r	.	.	8B-/	.	8d/	.	4F\	-rum	.	4f\	-rum	4a\	-rum	4cc\	-rum	8b-/	8dd\
.	.	.	8c/J	.	8e/J	.	.	.	.	.	.	.	.	.	.	8cc/J	8ee\J
!	!	!	!LO:LB:g=original	!	!	!	!	!	!	!	!	!	!	!	!	!	!
2r	.	.	8d/L	.	8f/L	.	2r	.	.	2r	.	2r	.	2r	.	8dd\L	8ff\L
.	.	.	8e/	.	8g/	.	.	.	.	.	.	.	.	.	.	8ee\	8gg\
.	.	.	8f/	.	8a/	.	.	.	.	.	.	.	.	.	.	8ff\	8aa\
.	.	.	8g/J	.	8b-/J	.	.	.	.	.	.	.	.	.	.	8gg\J	8bb-\J
=55	=55	=55	=55	=55	=55	=55	=55	=55	=55	=55	=55	=55	=55	=55	=55	=55	=55
!	!	!	!	!	!	!	!	!	!	!	!	!	!	!	!	!LO:LB:g=original	!
*tremolo	*	*	*	*	*	*	*	*	*	*	*	*	*	*	*	*	*
8F\L	.	.	4a/	.	4cc\	.	2.F\	fa-	.	2.c\	fa-	2.a\	fac-	2.ff\	fac-	4aa\	4ccc\
8F\	.	.	.	.	.	.	.	.	.	.	.	.	.	.	.	.	.
8F\	.	.	16aa\LL	.	16ccc\LL	.	.	.	.	.	.	.	.	.	.	4r	4r
.	.	.	16gg\	.	16bb-\	.	.	.	.	.	.	.	.	.	.	.	.
8F\J	.	.	16ff\	.	16aa\	.	.	.	.	.	.	.	.	.	.	.	.
.	.	.	16gg\JJ	.	16bb-\JJ	.	.	.	.	.	.	.	.	.	.	.	.
8F\L	.	.	16aa\LL	.	16ccc\LL	.	.	.	.	.	.	.	.	.	.	2r	2r
.	.	.	16aa\	.	16ccc\	.	.	.	.	.	.	.	.	.	.	.	.
8F\	.	.	16ff\	.	16aa\	.	.	.	.	.	.	.	.	.	.	.	.
.	.	.	16ff\JJ	.	16aa\JJ	.	.	.	.	.	.	.	.	.	.	.	.
8F\	.	.	16cc\LL	.	16ff\LL	.	4F\	-ctus	.	4c\	-ctus	4a\	-tus	4ff\	-tus	.	.
.	.	.	16cc\	.	16ff\	.	.	.	.	.	.	.	.	.	.	.	.
8F\J	.	.	16a\	.	16cc\	.	.	.	.	.	.	.	.	.	.	.	.
.	.	.	16a\JJ	.	16cc\JJ	.	.	.	.	.	.	.	.	.	.	.	.
*Xtremolo	*	*	*	*	*	*	*	*	*	*	*	*	*	*	*	*	*
=56	=56	=56	=56	=56	=56	=56	=56	=56	=56	=56	=56	=56	=56	=56	=56	=56	=56
!LO:LB:g=original	!	!	!	!	!	!	!	!	!	!	!	!	!	!	!	!	!
!LO:TX:b:t=P:problem:mixed beam	!	!	!	!	!	!	!	!	!	!	!	!	!	!	!	!	!
8c\L	.	.	16g/LL	.	16een\LL	.	2c\	ci-	.	2c\	ci-	2b-X\	ci-	2ee\	ci-	2b-X\	2gg\
.	.	.	16a/	.	16ff\	.	.	.	.	.	.	.	.	.	.	.	.
8c\	.	.	16b-/	.	16gg\	.	.	.	.	.	.	.	.	.	.	.	.
.	.	.	16a/JJ	.	16ff\JJ	.	.	.	.	.	.	.	.	.	.	.	.
!	!	!	!	!	!LO:LB:g=original	!	!	!	!	!	!	!	!	!	!	!	!
8C/	.	.	16g/LL	.	16ee\LL	.	.	.	.	.	.	.	.	.	.	.	.
.	.	.	16a/	.	16ff\	.	.	.	.	.	.	.	.	.	.	.	.
8C/J	.	.	16b-/	.	16gg\	.	.	.	.	.	.	.	.	.	.	.	.
!	!	!	!	!	!LO:TX:a:t=e	!	!	!	!	!	!	!	!	!	!	!	!
.	.	.	16g/JJ	.	16ee\JJ	.	.	.	.	.	.	.	.	.	.	.	.
!	!	!	!	!	!	!	!	!	!	!	!	!	!	!	!	!LO:N:vis=4.	!
4F\	.	.	16a/LL	.	16ff\LL	.	4F\	-bus	.	4c\	-bus	4a\	-bus	4ff\	-bus	4a\	4ff\
.	.	.	16a/	.	16cc\	.	.	.	.	.	.	.	.	.	.	.	.
.	.	.	16b-/	.	16dd\	.	.	.	.	.	.	.	.	.	.	.	.
.	.	.	16cc/JJ	.	16ee\JJ	.	.	.	.	.	.	.	.	.	.	.	.
4r	.	.	16dd\LL	.	16ff\LL	.	4r	.	.	4r	.	4r	.	4r	.	4r	4r
.	.	.	16ee\	.	16gg\	.	.	.	.	.	.	.	.	.	.	.	.
.	.	.	16ff\	.	16aa\	.	.	.	.	.	.	.	.	.	.	.	.
.	.	.	16gg\JJ	.	16bb-\JJ	.	.	.	.	.	.	.	.	.	.	.	.
=57	=57	=57	=57	=57	=57	=57	=57	=57	=57	=57	=57	=57	=57	=57	=57	=57	=57
!	!	!	!LO:LB:g=original	!	!	!	!	!	!	!	!	!LO:LB:g=original	!	!	!	!	!
*tremolo	*	*	*	*	*	*	*	*	*	*	*	*	*	*	*	*	*
8F\L	.	.	16aa\LL	.	16ccc\LL	.	2.F\	vi-	.	2.c\	vi-	2.a\	vi-	2.ff\	vi-	1a	1ff
.	.	.	16gg\	.	16bb-\	.	.	.	.	.	.	.	.	.	.	.	.
8F\	.	.	16ff\	.	16aa\	.	.	.	.	.	.	.	.	.	.	.	.
.	.	.	16gg\JJ	.	16bb-\JJ	.	.	.	.	.	.	.	.	.	.	.	.
8F\	.	.	16aa\LL	.	16ccc\LL	.	.	.	.	.	.	.	.	.	.	.	.
.	.	.	16gg\	.	16bb-\	.	.	.	.	.	.	.	.	.	.	.	.
8F\J	.	.	16ff\	.	16aa\	.	.	.	.	.	.	.	.	.	.	.	.
.	.	.	16gg\JJ	.	16bb-\JJ	.	.	.	.	.	.	.	.	.	.	.	.
8F\L	.	.	16aa\LL	.	16ccc\LL	.	.	.	.	.	.	.	.	.	.	.	.
.	.	.	16aa\	.	16ccc\	.	.	.	.	.	.	.	.	.	.	.	.
8F\	.	.	16ff\	.	16aa\	.	.	.	.	.	.	.	.	.	.	.	.
.	.	.	16ff\JJ	.	16aa\JJ	.	.	.	.	.	.	.	.	.	.	.	.
8F\	.	.	16cc\LL	.	16ff\LL	.	4F\	-a-	.	4c\	-a-	4a\	-a-	4ff\	-a-	.	.
.	.	.	16cc\	.	16ff\	.	.	.	.	.	.	.	.	.	.	.	.
8F\J	.	.	16a\	.	16cc\	.	.	.	.	.	.	.	.	.	.	.	.
.	.	.	16a\JJ	.	16cc\JJ	.	.	.	.	.	.	.	.	.	.	.	.
*Xtremolo	*	*	*	*	*	*	*	*	*	*	*	*	*	*	*	*	*
=58	=58	=58	=58	=58	=58	=58	=58	=58	=58	=58	=58	=58	=58	=58	=58	=58	=58
!	!	!	!	!	!	!	!LO:LB:g=original	!	!	!LO:LB:g=original	!	!	!	!	!	!	!
!LO:TX:b:t=P:problem:mixed beam	!	!	!	!	!	!	!	!	!	!	!	!	!	!	!	!	!
8c\L	.	.	16g/LL	.	16ee\LL	.	2c\	-to-	.	2c\	-to-	2g\	-to-	2ee\	-to-	2b-\	2ee\
.	.	.	16g/	.	16ee\	.	.	.	.	.	.	.	.	.	.	.	.
8c\	.	.	16a/	.	16ff\	.	.	.	.	.	.	.	.	.	.	.	.
.	.	.	16a/JJ	.	16ff\JJ	.	.	.	.	.	.	.	.	.	.	.	.
8C/	.	.	16b-X/LL	.	16gg\LL	.	.	.	.	.	.	.	.	.	.	.	.
.	.	.	16b-/	.	16gg\	.	.	.	.	.	.	.	.	.	.	.	.
8C/J	.	.	16g/	.	16ee\	.	.	.	.	.	.	.	.	.	.	.	.
.	.	.	16g/JJ	.	16ee\JJ	.	.	.	.	.	.	.	.	.	.	.	.
!	!	!	!	!	!LO:LB:g=original	!	!	!	!	!	!	!	!	!	!	!	!
*tremolo	*	*	*	*	*	*	*	*	*	*	*	*	*	*	*	*	*
8F\L	.	.	16a/LL	.	16ff\LL	.	4F\	-rum	.	4c\	-rum	4a\	-rum	4ff\	-rum	4a\	4ff\
.	.	.	16cc/	.	16gg\	.	.	.	.	.	.	.	.	.	.	.	.
8F\	.	.	16a/	.	16ff\	.	.	.	.	.	.	.	.	.	.	.	.
.	.	.	16cc/JJ	.	16gg\JJ	.	.	.	.	.	.	.	.	.	.	.	.
8F\	.	.	16ff\LL	.	16aa\LL	.	4r	.	.	4r	.	4r	.	4r	.	4r	4r
.	.	.	16gg\	.	16bb-X\	.	.	.	.	.	.	.	.	.	.	.	.
8F\J	.	.	16ff\	.	16aa\	.	.	.	.	.	.	.	.	.	.	.	.
.	.	.	16gg\JJ	.	16bb-\JJ	.	.	.	.	.	.	.	.	.	.	.	.
=59	=59	=59	=59	=59	=59	=59	=59	=59	=59	=59	=59	=59	=59	=59	=59	=59	=59
*	*	*	*tremolo	*	*tremolo	*	*	*	*	*	*	*	*	*	*	*	*
8A\L	.	.	16ff\LL	.	16ccc\LL	.	2.A\	ve-	.	2.f\	ve-	2.cc\	ve-	2.ee-X\	ve-	1f	1ee-X
.	.	.	16ff\	.	16ccc\	.	.	.	.	.	.	.	.	.	.	.	.
8A\	.	.	16ff\	.	16ccc\	.	.	.	.	.	.	.	.	.	.	.	.
.	.	.	16ff\	.	16ccc\	.	.	.	.	.	.	.	.	.	.	.	.
8A\	.	.	16ff\	.	16ccc\	.	.	.	.	.	.	.	.	.	.	.	.
.	.	.	16ff\	.	16ccc\	.	.	.	.	.	.	.	.	.	.	.	.
8A\J	.	.	16ff\	.	16ccc\	.	.	.	.	.	.	.	.	.	.	.	.
.	.	.	16ff\JJ	.	16ccc\JJ	.	.	.	.	.	.	.	.	.	.	.	.
8A\L	.	.	16ff\LL	.	16ccc\LL	.	.	.	.	.	.	.	.	.	.	.	.
.	.	.	16ff\	.	16ccc\	.	.	.	.	.	.	.	.	.	.	.	.
8A\	.	.	16ff\	.	16ccc\	.	.	.	.	.	.	.	.	.	.	.	.
.	.	.	16ff\	.	16ccc\	.	.	.	.	.	.	.	.	.	.	.	.
8A\	.	.	16ff\	.	16ccc\	.	4A\	-re	.	4f\	-re	4cc\	-re	4ee-\	-re	.	.
.	.	.	16ff\	.	16ccc\	.	.	.	.	.	.	.	.	.	.	.	.
8A\J	.	.	16ff\	.	16ccc\	.	.	.	.	.	.	.	.	.	.	.	.
.	.	.	16ff\JJ	.	16ccc\JJ	.	.	.	.	.	.	.	.	.	.	.	.
=60	=60	=60	=60	=60	=60	=60	=60	=60	=60	=60	=60	=60	=60	=60	=60	=60	=60
8B-\L	.	.	16ff\LL	.	16ddd\LL	.	2B-\	pa-	.	2f\	pa-	2b-\	pa-	2dd\	pa-	2.f/	2.dd\
.	.	.	16ff\	.	16ddd\	.	.	.	.	.	.	.	.	.	.	.	.
8B-\	.	.	16ff\	.	16ddd\	.	.	.	.	.	.	.	.	.	.	.	.
.	.	.	16ff\	.	16ddd\	.	.	.	.	.	.	.	.	.	.	.	.
8B-\	.	.	16ff\	.	16ddd\	.	.	.	.	.	.	.	.	.	.	.	.
.	.	.	16ff\	.	16ddd\	.	.	.	.	.	.	.	.	.	.	.	.
8B-\J	.	.	16ff\	.	16ddd\	.	.	.	.	.	.	.	.	.	.	.	.
.	.	.	16ff\JJ	.	16ddd\JJ	.	.	.	.	.	.	.	.	.	.	.	.
*Xtremolo	*	*	*	*	*	*	*	*	*	*	*	*	*	*	*	*	*
8B-\L	.	.	16ff\LL	.	16ddd\LL	.	4B-\	-nis	.	4f\	-nis	4b-\	-nis	4dd\	-nis	.	.
.	.	.	16ff\	.	16ddd\	.	.	.	.	.	.	.	.	.	.	.	.
8B-\	.	.	16ff\	.	16ddd\	.	.	.	.	.	.	.	.	.	.	.	.
.	.	.	16ff\JJ	.	16ddd\JJ	.	.	.	.	.	.	.	.	.	.	.	.
8A\	.	.	16ff#X\LL	.	16ccc\LL	.	4A\	.	.	4f#X\	.	4r	.	4r	.	4f#X/	4ccn\
.	.	.	16ff#\	.	16ccc\	.	.	.	.	.	.	.	.	.	.	.	.
8A\J	.	.	16ff#\	.	16ccc\	.	.	.	.	.	.	.	.	.	.	.	.
.	.	.	16ff#\JJ	.	16ccc\JJ	.	.	.	.	.	.	.	.	.	.	.	.
=61	=61	=61	=61	=61	=61	=61	=61	=61	=61	=61	=61	=61	=61	=61	=61	=61	=61
!	!	!	!LO:PB:g=original	!	!	!	!	!	!	!	!	!	!	!LO:LB:g=original	!	!	!LO:LB:g=original
*tremolo	*	*	*	*	*	*	*	*	*	*	*	*	*	*	*	*	*
8G\L	.	.	16gg\LL	.	16bbn\LL	.	2.G\	fi-	.	2.g\	fi-	2.dd\	fi-	2.ff\	fi-	2g/	2bn\
.	.	.	16gg\	.	16bb\	.	.	.	.	.	.	.	.	.	.	.	.
8G\	.	.	16gg\	.	16bb\	.	.	.	.	.	.	.	.	.	.	.	.
.	.	.	16gg\JJ	.	16bb\JJ	.	.	.	.	.	.	.	.	.	.	.	.
8G\	.	.	16gg\LL	.	16bb\LL	.	.	.	.	.	.	.	.	.	.	.	.
.	.	.	16gg\	.	16bb\	.	.	.	.	.	.	.	.	.	.	.	.
8G\J	.	.	16gg\	.	16bb\	.	.	.	.	.	.	.	.	.	.	.	.
.	.	.	16gg\JJ	.	16bb\JJ	.	.	.	.	.	.	.	.	.	.	.	.
8G\L	.	.	16ffn\LL	.	16ddd\LL	.	.	.	.	.	.	.	.	.	.	2dd\	2ff\
.	.	.	16ff\	.	16ddd\	.	.	.	.	.	.	.	.	.	.	.	.
8G\	.	.	16ff\	.	16ddd\	.	.	.	.	.	.	.	.	.	.	.	.
.	.	.	16ff\	.	16ddd\	.	.	.	.	.	.	.	.	.	.	.	.
8G\	.	.	16ff\	.	16ddd\	.	4G\	-li-	.	4g\	-li-	4dd\	-li-	4ff\	-li-	.	.
.	.	.	16ff\	.	16ddd\	.	.	.	.	.	.	.	.	.	.	.	.
8G\J	.	.	16ff\	.	16ddd\	.	.	.	.	.	.	.	.	.	.	.	.
.	.	.	16ff\JJ	.	16ddd\JJ	.	.	.	.	.	.	.	.	.	.	.	.
=62	=62	=62	=62	=62	=62	=62	=62	=62	=62	=62	=62	=62	=62	=62	=62	=62	=62
!	!	!	!	!	!	!	!	!	!	!	!	!LO:LB:g=original	!	!	!	!	!
8c\L	.	.	16ee\LL	.	16ccc\LL	.	2C/	-o-	.	2g\	-o-	2cc\	-o-	2ee\	-o-	1cc	1ee
.	.	.	16ee\	.	16ccc\	.	.	.	.	.	.	.	.	.	.	.	.
8c\	.	.	16ee\	.	16ccc\	.	.	.	.	.	.	.	.	.	.	.	.
.	.	.	16ee\	.	16ccc\	.	.	.	.	.	.	.	.	.	.	.	.
8c\	.	.	16ee\	.	16ccc\	.	.	.	.	.	.	.	.	.	.	.	.
.	.	.	16ee\	.	16ccc\	.	.	.	.	.	.	.	.	.	.	.	.
8c\J	.	.	16ee\	.	16ccc\	.	.	.	.	.	.	.	.	.	.	.	.
.	.	.	16ee\JJ	.	16ccc\JJ	.	.	.	.	.	.	.	.	.	.	.	.
8c\L	.	.	16ee\LL	.	16ccc\LL	.	2C/	-rum	.	2g\	-rum	2cc\	-rum	2ee\	-rum	.	.
.	.	.	16ee\	.	16ccc\	.	.	.	.	.	.	.	.	.	.	.	.
8c\	.	.	16ee\	.	16ccc\	.	.	.	.	.	.	.	.	.	.	.	.
.	.	.	16ee\	.	16ccc\	.	.	.	.	.	.	.	.	.	.	.	.
8c\	.	.	16ee\	.	16ccc\	.	.	.	.	.	.	.	.	.	.	.	.
.	.	.	16ee\	.	16ccc\	.	.	.	.	.	.	.	.	.	.	.	.
8c\J	.	.	16ee\	.	16ccc\	.	.	.	.	.	.	.	.	.	.	.	.
.	.	.	16ee\JJ	.	16ccc\JJ	.	.	.	.	.	.	.	.	.	.	.	.
=63	=63	=63	=63	=63	=63	=63	=63	=63	=63	=63	=63	=63	=63	=63	=63	=63	=63
!	!	!	!	!	!	!	!LO:LB:g=original	!	!	!LO:LB:g=original	!	!	!	!	!	!LO:LB:g=original	!
8C\L	.	.	16gg\LL	.	16bb-X\LL	.	2E\	non	.	2c\	non	2b-X\	non	2gg\	non	1cc	1bb-X
.	.	.	16gg\	.	16bb-\	.	.	.	.	.	.	.	.	.	.	.	.
8G\	.	.	16gg\	.	16bb-\	.	.	.	.	.	.	.	.	.	.	.	.
.	.	.	16gg\	.	16bb-\	.	.	.	.	.	.	.	.	.	.	.	.
8c\	.	.	16gg\	.	16bb-\	.	.	.	.	.	.	.	.	.	.	.	.
.	.	.	16gg\	.	16bb-\	.	.	.	.	.	.	.	.	.	.	.	.
8G\J	.	.	16gg\	.	16bb-\	.	.	.	.	.	.	.	.	.	.	.	.
.	.	.	16gg\JJ	.	16bb-\JJ	.	.	.	.	.	.	.	.	.	.	.	.
!LO:LB:g=original	!	!	!	!	!	!	!	!	!	!	!	!	!	!	!	!	!
8E\L	.	.	16gg\LL	.	16bb-\LL	.	2E\	mit-	.	2c\	mit-	2b-\	mit-	2gg\	mit-	.	.
.	.	.	16gg\	.	16bb-\	.	.	.	.	.	.	.	.	.	.	.	.
8G\	.	.	16gg\	.	16bb-\	.	.	.	.	.	.	.	.	.	.	.	.
.	.	.	16gg\	.	16bb-\	.	.	.	.	.	.	.	.	.	.	.	.
8c\	.	.	16gg\	.	16bb-\	.	.	.	.	.	.	.	.	.	.	.	.
.	.	.	16gg\	.	16bb-\	.	.	.	.	.	.	.	.	.	.	.	.
8G\J	.	.	16gg\	.	16bb-\	.	.	.	.	.	.	.	.	.	.	.	.
.	.	.	16gg\JJ	.	16bb-\JJ	.	.	.	.	.	.	.	.	.	.	.	.
=64	=64	=64	=64	=64	=64	=64	=64	=64	=64	=64	=64	=64	=64	=64	=64	=64	=64
!	!	!	!	!	!LO:LB:g=original	!	!	!	!	!	!	!	!	!	!	!	!
8F\L	.	.	16cc\LL	.	16aa\LL	.	2F\	-ten-	.	2c\	-ten-	2e\	-ten-	2ff\	-ten-	2cc\	2aa\
.	.	.	16cc\	.	16aa\	.	.	.	.	.	.	.	.	.	.	.	.
8F\	.	.	16cc\	.	16aa\	.	.	.	.	.	.	.	.	.	.	.	.
.	.	.	16cc\	.	16aa\	.	.	.	.	.	.	.	.	.	.	.	.
8F\	.	.	16cc\	.	16aa\	.	.	.	.	.	.	.	.	.	.	.	.
.	.	.	16cc\	.	16aa\	.	.	.	.	.	.	.	.	.	.	.	.
8F\J	.	.	16cc\	.	16aa\	.	.	.	.	.	.	.	.	.	.	.	.
.	.	.	16cc\JJ	.	16aa\JJ	.	.	.	.	.	.	.	.	.	.	.	.
8BB-/L	.	.	16b-\LL	.	16gg\LL	.	2BB-/	-dus	.	2d\	-dus	2f\	-dus	2gg\	-dus	2b-X\	2gg\
.	.	.	16b-\	.	16gg\	.	.	.	.	.	.	.	.	.	.	.	.
8BB-/	.	.	16b-\	.	16gg\	.	.	.	.	.	.	.	.	.	.	.	.
.	.	.	16b-\	.	16gg\	.	.	.	.	.	.	.	.	.	.	.	.
8BB-/	.	.	16b-\	.	16gg\	.	.	.	.	.	.	.	.	.	.	.	.
.	.	.	16b-\	.	16gg\	.	.	.	.	.	.	.	.	.	.	.	.
8BB-/J	.	.	16b-\	.	16gg\	.	.	.	.	.	.	.	.	.	.	.	.
.	.	.	16b-\JJ	.	16gg\JJ	.	.	.	.	.	.	.	.	.	.	.	.
=65	=65	=65	=65	=65	=65	=65	=65	=65	=65	=65	=65	=65	=65	=65	=65	=65	=65
8C/L	.	.	16a/LL	.	16ff\LL	.	2.C/	ca-	.	2.c\	ca-	2.e\	ca-	2ff\	ca-	2a\	2ff\
.	.	.	16a/	.	16ff\	.	.	.	.	.	.	.	.	.	.	.	.
8C/	.	.	16a/	.	16ff\	.	.	.	.	.	.	.	.	.	.	.	.
.	.	.	16a/	.	16ff\	.	.	.	.	.	.	.	.	.	.	.	.
8C/	.	.	16a/	.	16ff\	.	.	.	.	.	.	.	.	.	.	.	.
.	.	.	16a/	.	16ff\	.	.	.	.	.	.	.	.	.	.	.	.
8C/J	.	.	16a/	.	16ff\	.	.	.	.	.	.	.	.	.	.	.	.
.	.	.	16a/JJ	.	16ff\JJ	.	.	.	.	.	.	.	.	.	.	.	.
8C/L	.	.	16g/LL	.	16ee\LL	.	.	.	.	.	.	.	.	4.ee\	.	4.g\	4.een\
.	.	.	16g/	.	16ee\	.	.	.	.	.	.	.	.	.	.	.	.
8C/	.	.	16g/	.	16ee\	.	.	.	.	.	.	.	.	.	.	.	.
.	.	.	16g/	.	16ee\	.	.	.	.	.	.	.	.	.	.	.	.
8C/	.	.	16g/	.	16ee\	.	4C/	-ni-	.	4c\	-ni-	4e\	-ni-	.	.	.	.
.	.	.	16g/	.	16ee\	.	.	.	.	.	.	.	.	.	.	.	.
8C/J	.	.	16g/	.	16ee\	.	.	.	.	.	.	.	.	8ee\	-ni-	8g\	8ee\
.	.	.	16g/JJ	.	16ee\JJ	.	.	.	.	.	.	.	.	.	.	.	.
=66	=66	=66	=66	=66	=66	=66	=66	=66	=66	=66	=66	=66	=66	=66	=66	=66	=66
8F\L	.	.	16a/LL	.	16ff\LL	.	2F\	-bus	.	2c\	-bus	2e\	-bus	2ff\	-bus	1a	1ff
.	.	.	16a/	.	16ff\	.	.	.	.	.	.	.	.	.	.	.	.
8F\	.	.	16a/	.	16ff\	.	.	.	.	.	.	.	.	.	.	.	.
.	.	.	16a/	.	16ff\	.	.	.	.	.	.	.	.	.	.	.	.
8F\	.	.	16a/	.	16ff\	.	.	.	.	.	.	.	.	.	.	.	.
.	.	.	16a/	.	16ff\	.	.	.	.	.	.	.	.	.	.	.	.
8F\J	.	.	16a/	.	16ff\	.	.	.	.	.	.	.	.	.	.	.	.
.	.	.	16a/JJ	.	16ff\JJ	.	.	.	.	.	.	.	.	.	.	.	.
8E\L	.	.	16a/LL	.	16ff\LL	.	4E\	non	.	4f\	non	4a\	non	4ff\	non	.	.
.	.	.	16a/	.	16ff\	.	.	.	.	.	.	.	.	.	.	.	.
8E\	.	.	16a/	.	16ff\	.	.	.	.	.	.	.	.	.	.	.	.
.	.	.	16a/	.	16ff\	.	.	.	.	.	.	.	.	.	.	.	.
8E\	.	.	16a	.	16ff\	.	4E\	mit-	.	4f\	mit-	4a\	mit-	4ff\	mit-	.	.
.	.	.	16a/	.	16ff\	.	.	.	.	.	.	.	.	.	.	.	.
8E\J	.	.	16a/	.	16ff\	.	.	.	.	.	.	.	.	.	.	.	.
.	.	.	16a/JJ	.	16ff\JJ	.	.	.	.	.	.	.	.	.	.	.	.
=67	=67	=67	=67	=67	=67	=67	=67	=67	=67	=67	=67	=67	=67	=67	=67	=67	=67
!	!	!	!	!	!	!	!	!	!	!	!	!LO:LB:g=original	!	!LO:LB:g=original	!	!	!
8D\L	.	.	16a/LL	.	16ff\LL	.	2D\	-ten-	.	2f\	-ten-	2a\	-ten-	2ff\	-ten-	1a	1ff
.	.	.	16a/	.	16ff\	.	.	.	.	.	.	.	.	.	.	.	.
8D\	.	.	16a/	.	16ff\	.	.	.	.	.	.	.	.	.	.	.	.
.	.	.	16a/	.	16ff\	.	.	.	.	.	.	.	.	.	.	.	.
8D\	.	.	16a/	.	16ff\	.	.	.	.	.	.	.	.	.	.	.	.
.	.	.	16a/	.	16ff\	.	.	.	.	.	.	.	.	.	.	.	.
8D\J	.	.	16a/	.	16ff\	.	.	.	.	.	.	.	.	.	.	.	.
.	.	.	16a/JJ	.	16ff\JJ	.	.	.	.	.	.	.	.	.	.	.	.
8C/L	.	.	16a/LL	.	16ff\LL	.	2C/	-dus	.	2f\	-dus	2a\	-dus	2ff\	-dus	.	.
.	.	.	16a/	.	16ff\	.	.	.	.	.	.	.	.	.	.	.	.
8C/	.	.	16a/	.	16ff\	.	.	.	.	.	.	.	.	.	.	.	.
.	.	.	16a/	.	16ff\	.	.	.	.	.	.	.	.	.	.	.	.
8C/	.	.	16a/	.	16ff\	.	.	.	.	.	.	.	.	.	.	.	.
.	.	.	16a/	.	16ff\	.	.	.	.	.	.	.	.	.	.	.	.
8C/J	.	.	16a/	.	16ff\	.	.	.	.	.	.	.	.	.	.	.	.
.	.	.	16a/JJ	.	16ff\JJ	.	.	.	.	.	.	.	.	.	.	.	.
=68	=68	=68	=68	=68	=68	=68	=68	=68	=68	=68	=68	=68	=68	=68	=68	=68	=68
!	!	!	!LO:LB:g=original	!	!	!	!	!	!	!LO:LB:g=original	!	!	!	!	!	!	!
!	!	!	!	!	!	!	!	!	!	!	!	!LO:TX:a:t=P:problem:dopisany ołówkiem bemol	!	!	!	!	!
!	!	!	!	!	!	!	!	!	!	!	!	!LO:SIC:s=2.a-:v	!	!	!	!	!
8BB-X/L	.	.	16g/LL	.	16ff\LL	.	2BB-X/	non	.	2.f\	non	2.a\	non	2.ff\	non	2g/	1ff
.	.	.	16g/	.	16ff\	.	.	.	.	.	.	.	.	.	.	.	.
8BB-/	.	.	16g/	.	16ff\	.	.	.	.	.	.	.	.	.	.	.	.
.	.	.	16g/	.	16ff\	.	.	.	.	.	.	.	.	.	.	.	.
8BB-/	.	.	16g/	.	16ff\	.	.	.	.	.	.	.	.	.	.	.	.
.	.	.	16g/	.	16ff\	.	.	.	.	.	.	.	.	.	.	.	.
8BB-/J	.	.	16g/	.	16ff\	.	.	.	.	.	.	.	.	.	.	.	.
.	.	.	16g/JJ	.	16ff\JJ	.	.	.	.	.	.	.	.	.	.	.	.
8BBn/L	.	.	16g#X/LL	.	16ff\LL	.	2BBn/	mit-	.	.	.	.	.	.	.	2g#X/	.
.	.	.	16g#/	.	16ff\	.	.	.	.	.	.	.	.	.	.	.	.
8BB/	.	.	16g#/	.	16ff\	.	.	.	.	.	.	.	.	.	.	.	.
.	.	.	16g#/	.	16ff\	.	.	.	.	.	.	.	.	.	.	.	.
8BB/	.	.	16g#/	.	16ff\	.	.	.	.	4f\	mit-	4a\	mit-	4ff\	mit-	.	.
.	.	.	16g#/	.	16ff\	.	.	.	.	.	.	.	.	.	.	.	.
8BB/J	.	.	16g#/	.	16ff\	.	.	.	.	.	.	.	.	.	.	.	.
.	.	.	16g#/JJ	.	16ff\JJ	.	.	.	.	.	.	.	.	.	.	.	.
=69	=69	=69	=69	=69	=69	=69	=69	=69	=69	=69	=69	=69	=69	=69	=69	=69	=69
!	!	!	!	!	!	!	!LO:LB:g=original	!	!	!	!	!	!	!	!	!	!
8C/L	.	.	16a/LL	.	16ff\LL	.	4C/	-ten-	.	4f\	-ten-	4a\	-ten-	4ff\	-ten-	1a	1ff
.	.	.	16a/	.	16ff\	.	.	.	.	.	.	.	.	.	.	.	.
8C/	.	.	16a/	.	16ff\	.	.	.	.	.	.	.	.	.	.	.	.
.	.	.	16a/	.	16ff\	.	.	.	.	.	.	.	.	.	.	.	.
8C/	.	.	16a/	.	16ff\	.	4C/	-dus	.	4f\	-dus	4a\	-dus	4ff\	-dus	.	.
.	.	.	16a/	.	16ff\	.	.	.	.	.	.	.	.	.	.	.	.
8C/J	.	.	16a/	.	16ff\	.	.	.	.	.	.	.	.	.	.	.	.
.	.	.	16a/JJ	.	16ff\JJ	.	.	.	.	.	.	.	.	.	.	.	.
8C/L	.	.	16g/LL	.	16ee\LL	.	4C/	ca-	.	4.e\	ca-	4.gn\	ca-	4.ee\	ca-	.	.
.	.	.	16g/	.	16ee\	.	.	.	.	.	.	.	.	.	.	.	.
8C/	.	.	16g/	.	16ee\	.	.	.	.	.	.	.	.	.	.	.	.
.	.	.	16g/	.	16ee\	.	.	.	.	.	.	.	.	.	.	.	.
8C/	.	.	16g/	.	16ee\	.	4C/	-ni-	.	.	.	.	.	.	.	.	.
.	.	.	16g/	.	16ee\	.	.	.	.	.	.	.	.	.	.	.	.
*	*	*	*	*	*	*	*	*	*	*	*	*8\right	*	*	*	*	*
8C/J	.	.	16g/	.	16ee\	.	.	.	.	8e\	-ni-	8g\	-ni-	8ee\	-ni-	.	.
.	.	.	16g/JJ	.	16ee\JJ	.	.	.	.	.	.	.	.	.	.	.	.
=70	=70	=70	=70	=70	=70	=70	=70	=70	=70	=70	=70	=70	=70	=70	=70	=70	=70
8F\L	.	.	16a/LL	.	16ff\LL	.	2F\	-bus	.	2c\	-bus	2a\	-bus	2ff\	-bus	2a\	2ff\
.	.	.	16a/	.	16ff\	.	.	.	.	.	.	.	.	.	.	.	.
8F\	.	.	16a/	.	16ff\	.	.	.	.	.	.	.	.	.	.	.	.
.	.	.	16a/	.	16ff\	.	.	.	.	.	.	.	.	.	.	.	.
8F\	.	.	16a/	.	16ff\	.	.	.	.	.	.	.	.	.	.	.	.
.	.	.	16a/	.	16ff\	.	.	.	.	.	.	.	.	.	.	.	.
8F\J	.	.	16a/	.	16ff\	.	.	.	.	.	.	.	.	.	.	.	.
.	.	.	16a/JJ	.	16ff\JJ	.	.	.	.	.	.	.	.	.	.	.	.
8C/L	.	.	16g/LL	.	16ee\LL	.	4.C/	ca-	.	4.c\	ca-	4.g\	ca-	4.ee\	ca-	4.g/	4.ee\
.	.	.	16g/	.	16ee\	.	.	.	.	.	.	.	.	.	.	.	.
8C/	.	.	16g/	.	16ee\	.	.	.	.	.	.	.	.	.	.	.	.
.	.	.	16g/	.	16ee\	.	.	.	.	.	.	.	.	.	.	.	.
8C/	.	.	16g/	.	16ee\	.	.	.	.	.	.	.	.	.	.	.	.
.	.	.	16g/	.	16ee\	.	.	.	.	.	.	.	.	.	.	.	.
8C/J	.	.	16g/	.	16ee\	.	8C/	-ni-	.	8c\	-ni-	8g\	-ni-	8ee\	-ni-	8g/	8ee\
.	.	.	16g/JJ	.	16ee\JJ	.	.	.	.	.	.	.	.	.	.	.	.
=71	=71	=71	=71	=71	=71	=71	=71	=71	=71	=71	=71	=71	=71	=71	=71	=71	=71
!LO:LB:g=original	!	!	!	!	!LO:LB:g=original	!	!	!	!	!LO:LB:g=original	!	!LO:LB:g=original	!	!	!	!	!LO:LB:g=original
8F\L	.	.	16a/LL	.	16ff\LL	.	2F\	-bus	.	2c\	-bus	2a\	-bus	2ff\	-bus	2a/	2ff\
.	.	.	16a/	.	16ff\	.	.	.	.	.	.	.	.	.	.	.	.
8F\	.	.	16a/	.	16ff\	.	.	.	.	.	.	.	.	.	.	.	.
.	.	.	16a/	.	16ff\	.	.	.	.	.	.	.	.	.	.	.	.
8F\	.	.	16a/	.	16ff\	.	.	.	.	.	.	.	.	.	.	.	.
.	.	.	16a/	.	16ff\	.	.	.	.	.	.	.	.	.	.	.	.
8F\J	.	.	16a/	.	16ff\	.	.	.	.	.	.	.	.	.	.	.	.
.	.	.	16a/JJ	.	16ff\JJ	.	.	.	.	.	.	.	.	.	.	.	.
!	!	!	!	!	!	!	!	!	!	!	!	!	!	!	!	!LO:LB:g=original	!
8C/L	.	.	16g/LL	.	16ee\LL	.	4.C/	ca-	.	4.c\	ca-	4.g\	ca-	4.ee\	ca-	4.g/	4.ee\
.	.	.	16g/	.	16ee\	.	.	.	.	.	.	.	.	.	.	.	.
8C/	.	.	16g/	.	16ee\	.	.	.	.	.	.	.	.	.	.	.	.
.	.	.	16g/	.	16ee\	.	.	.	.	.	.	.	.	.	.	.	.
8C/	.	.	16g/	.	16ee\	.	.	.	.	.	.	.	.	.	.	.	.
.	.	.	16g/	.	16ee\	.	.	.	.	.	.	.	.	.	.	.	.
8C/J	.	.	16g/	.	16ee\	.	8C/	-ni-	.	8c\	-ni-	8g\	-ni-	8ee\	-ni-	8g/	8ee\
.	.	.	16g/JJ	.	16ee\JJ	.	.	.	.	.	.	.	.	.	.	.	.
*Xtremolo	*	*	*Xtremolo	*	*Xtremolo	*	*	*	*	*	*	*	*	*	*	*	*
=72	=72	=72	=72	=72	=72	=72	=72	=72	=72	=72	=72	=72	=72	=72	=72	=72	=72
4F\	.	.	4a/	.	4ff\	.	2F\	-bus.	.	2c\	-bus.	2a\	-bus	2ff\	-bus	4a/	4ff\
4r	.	.	16a/LL	.	16cc\LL	.	.	.	.	.	.	.	.	.	.	16aa\LL	16ccc\LL
!	!	!	!	!LO:DY:b	!	!LO:DY:b	!	!	!	!	!	!	!	!	!	!	!
.	.	.	16g/	p	16b-\	p	.	.	.	.	.	.	.	.	.	16gg\	16bb-\
.	.	.	16f/	.	16a\	.	.	.	.	.	.	.	.	.	.	16ff\	16aa\
.	.	.	16g/JJ	.	16b-\JJ	.	.	.	.	.	.	.	.	.	.	16gg\JJ	16bb-\JJ
!	!	!	!LO:TX:b:t=P:problem:mixed beam	!	!	!LO:DY:b	!	!	!	!	!	!	!	!	!	!	!
8r	.	.	8a/L	.	8cc\L	f	2r	.	.	2r	.	2r	.	2r	.	4aa\	4ccc\
!LO:TX:b:t=P:problem:mixed beam	!	!	!	!	!	!	!	!	!	!	!	!	!	!	!	!	!
8F\L	.	.	8ff\	.	8aa\	.	.	.	.	.	.	.	.	.	.	.	.
!	!	!LO:DY:b	!	!	!	!	!	!	!	!	!	!	!	!	!	!	!
8c\	.	f	8ee\	.	8gg\	.	.	.	.	.	.	.	.	.	.	4r	4r
8C/J	.	.	8gg\J	.	8bb-\J	.	.	.	.	.	.	.	.	.	.	.	.
=73	=73	=73	=73	=73	=73	=73	=73	=73	=73	=73	=73	=73	=73	=73	=73	=73	=73
!	!	!	!	!	!	!	!LO:TX:a:t=2	!	!	!LO:TX:a:t=2	!	!LO:TX:a:t=2	!	!LO:TX:a:t=2	!	!	!
4F\	.	.	4ff\	.	4aa\	.	0r	.	.	0r	.	0r	.	0r	.	4r	4r
4r	.	.	16a/LL	.	16cc/LL	.	.	.	.	.	.	.	.	.	.	16aa\LL	16ccc\LL
.	.	.	16g/	.	16b-/	.	.	.	.	.	.	.	.	.	.	16gg\	16bb-\
.	.	.	16f/	.	16a/	.	.	.	.	.	.	.	.	.	.	16ff\	16aa\
.	.	.	16g/JJ	.	16b-/JJ	.	.	.	.	.	.	.	.	.	.	16gg\JJ	16bb-\JJ
!	!	!	!LO:LB:g=original	!	!LO:TX:b:t=P:problem:mixed beam	!	!	!	!	!	!	!	!	!	!	!	!
8r	.	.	8f/L	.	8a/L	.	.	.	.	.	.	.	.	.	.	4ff\	4ccc\
8D/L	.	.	8a/	.	8ff\	.	.	.	.	.	.	.	.	.	.	.	.
8BB-/	.	.	8b-/	.	8gg\	.	.	.	.	.	.	.	.	.	.	4r	4r
8C/J	.	.	8g/J	.	8ee\J	.	.	.	.	.	.	.	.	.	.	.	.
=74	=74	=74	=74	=74	=74	=74	=74	=74	=74	=74	=74	=74	=74	=74	=74	=74	=74
8F\L	.	.	4a/	.	4ff\	.	.	.	.	.	.	.	.	.	.	4a/	4ff\
8F\	.	.	.	.	.	.	.	.	.	.	.	.	.	.	.	.	.
!	!	!	!LO:N:vis=8	!	!	!	!	!	!	!	!	!	!	!	!	!	!
8C\	.	.	8.aL 8.f 8.A/	.	8.ffL 8.a/	.	.	.	.	.	.	.	.	.	.	8.a/L	8.ff\L
8AA\J	.	.	.	.	.	.	.	.	.	.	.	.	.	.	.	.	.
.	.	.	16aJk 16f 16A/	.	16ffJk 16a/	.	.	.	.	.	.	.	.	.	.	16a/Jk	16ff\Jk
4FF/	.	.	4a 4f 4A/	.	4ff 4a/	.	.	.	.	.	.	.	.	.	.	4a/	4ff\
!LO:TX:b:t=P:problem:na str. pl-cz-ii136-012 znajduje się fragment strony partii organów z napisem Aria	!	!	!	!	!	!	!	!	!	!	!	!	!	!LO:TX:b:t=Finis bene revisum.	!	!	!
4r	.	.	4r	.	4r	.	.	.	.	.	.	.	.	.	.	4r	4r
==	==	==	==	==	==	==	==	==	==	==	==	==	==	==	==	==	==
*-	*-	*-	*-	*-	*-	*-	*-	*-	*-	*-	*-	*-	*-	*-	*-	*-	*-
!!!system-decoration: [g1][g2][g3]s9
!!!RDF**kern: i = editorial accidental
!!!RDF**kern: > = above
!!!RDF**kern: < = below
!!!AIN: 1 alto 1 bass 2 oboe 1 organ 1 tenor 2 violn 1 vox
!!!ENC: Andrzej Gręziak
!!!END: 2020-04-14
!!!ENC: Marta Lawrence
!!!END: 2020-05-07
